examples/cinematic.cube
# Simple Teal-Orange LUT (generated)
LUT_3D_SIZE 9
DOMAIN_MIN 0.0 0.0 0.0
DOMAIN_MAX 1.0 1.0 1.0
0.000000 0.050000 0.150000
0.000000 0.047917 0.266667
0.000000 0.045833 0.383333
0.000000 0.043750 0.500000
0.000000 0.041667 0.616667
0.000000 0.039583 0.733333
0.000000 0.037500 0.850000
0.008333 0.035417 0.966667
0.016667 0.033333 1.000000
0.000000 0.172917 0.141667
0.000000 0.170833 0.258333
0.000000 0.168750 0.375000
0.000000 0.166667 0.491667
0.000000 0.164583 0.608333
0.000000 0.162500 0.725000
0.008333 0.160417 0.841667
0.016667 0.158333 0.958333
0.025000 0.156250 1.000000
0.000000 0.295833 0.133333
0.000000 0.293750 0.250000
0.000000 0.291667 0.366667
0.000000 0.289583 0.483333
0.000000 0.287500 0.600000
0.008333 0.285417 0.716667
0.016667 0.283333 0.833333
0.025000 0.281250 0.950000
0.033333 0.279167 1.000000
0.000000 0.418750 0.125000
0.000000 0.416667 0.241667
0.000000 0.414583 0.358333
0.000000 0.412500 0.475000
0.008333 0.410417 0.591667
0.016667 0.408333 0.708333
0.025000 0.406250 0.825000
0.033333 0.404167 0.941667
0.041667 0.402083 1.000000
0.000000 0.541667 0.116667
0.000000 0.539583 0.233333
0.000000 0.537500 0.350000
0.008333 0.535417 0.466667
0.016667 0.533333 0.583333
0.025000 0.531250 0.700000
0.033333 0.529167 0.816667
0.041667 0.527083 0.933333
0.050000 0.525000 1.000000
0.000000 0.664583 0.108333
0.000000 0.662500 0.225000
0.008333 0.660417 0.341667
0.016667 0.658333 0.458333
0.025000 0.656250 0.575000
0.033333 0.654167 0.691667
0.041667 0.652083 0.808333
0.050000 0.650000 0.925000
0.058333 0.647917 1.000000
0.000000 0.787500 0.100000
0.008333 0.785417 0.216667
0.016667 0.783333 0.333333
0.025000 0.781250 0.450000
0.033333 0.779167 0.566667
0.041667 0.777083 0.683333
0.050000 0.775000 0.800000
0.058333 0.772917 0.916667
0.066667 0.770833 1.000000
0.008333 0.910417 0.091667
0.016667 0.908333 0.208333
0.025000 0.906250 0.325000
0.033333 0.904167 0.441667
0.041667 0.902083 0.558333
0.050000 0.900000 0.675000
0.058333 0.897917 0.791667
0.066667 0.895833 0.908333
0.075000 0.893750 1.000000
0.016667 1.000000 0.083333
0.025000 1.000000 0.200000
0.033333 1.000000 0.316667
0.041667 1.000000 0.433333
0.050000 1.000000 0.550000
0.058333 1.000000 0.666667
0.066667 1.000000 0.783333
0.075000 1.000000 0.900000
0.083333 1.000000 1.000000
0.083333 0.047917 0.141667
0.091667 0.045833 0.258333
0.100000 0.043750 0.375000
0.108333 0.041667 0.491667
0.116667 0.039583 0.608333
0.125000 0.037500 0.725000
0.133333 0.035417 0.841667
0.141667 0.033333 0.958333
0.150000 0.031250 1.000000
0.091667 0.170833 0.133333
0.100000 0.168750 0.250000
0.108333 0.166667 0.366667
0.116667 0.164583 0.483333
0.125000 0.162500 0.600000
0.133333 0.160417 0.716667
0.141667 0.158333 0.833333
0.150000 0.156250 0.950000
0.158333 0.154167 1.000000
0.100000 0.293750 0.125000
0.108333 0.291667 0.241667
0.116667 0.289583 0.358333
0.125000 0.287500 0.475000
0.133333 0.285417 0.591667
0.141667 0.283333 0.708333
0.150000 0.281250 0.825000
0.158333 0.279167 0.941667
0.166667 0.277083 1.000000
0.108333 0.416667 0.116667
0.116667 0.414583 0.233333
0.125000 0.412500 0.350000
0.133333 0.410417 0.466667
0.141667 0.408333 0.583333
0.150000 0.406250 0.700000
0.158333 0.404167 0.816667
0.166667 0.402083 0.933333
0.175000 0.400000 1.000000
0.116667 0.539583 0.108333
0.125000 0.537500 0.225000
0.133333 0.535417 0.341667
0.141667 0.533333 0.458333
0.150000 0.531250 0.575000
0.158333 0.529167 0.691667
0.166667 0.527083 0.808333
0.175000 0.525000 0.925000
0.183333 0.522917 1.000000
0.125000 0.662500 0.100000
0.133333 0.660417 0.216667
0.141667 0.658333 0.333333
0.150000 0.656250 0.450000
0.158333 0.654167 0.566667
0.166667 0.652083 0.683333
0.175000 0.650000 0.800000
0.183333 0.647917 0.916667
0.191667 0.645833 1.000000
0.133333 0.785417 0.091667
0.141667 0.783333 0.208333
0.150000 0.781250 0.325000
0.158333 0.779167 0.441667
0.166667 0.777083 0.558333
0.175000 0.775000 0.675000
0.183333 0.772917 0.791667
0.191667 0.770833 0.908333
0.200000 0.768750 1.000000
0.141667 0.908333 0.083333
0.150000 0.906250 0.200000
0.158333 0.904167 0.316667
0.166667 0.902083 0.433333
0.175000 0.900000 0.550000
0.183333 0.897917 0.666667
0.191667 0.895833 0.783333
0.200000 0.893750 0.900000
0.208333 0.891667 1.000000
0.150000 1.000000 0.075000
0.158333 1.000000 0.191667
0.166667 1.000000 0.308333
0.175000 1.000000 0.425000
0.183333 1.000000 0.541667
0.191667 1.000000 0.658333
0.200000 1.000000 0.775000
0.208333 1.000000 0.891667
0.216667 1.000000 1.000000
0.216667 0.045833 0.133333
0.225000 0.043750 0.250000
0.233333 0.041667 0.366667
0.241667 0.039583 0.483333
0.250000 0.037500 0.600000
0.258333 0.035417 0.716667
0.266667 0.033333 0.833333
0.275000 0.031250 0.950000
0.283333 0.029167 1.000000
0.225000 0.168750 0.125000
0.233333 0.166667 0.241667
0.241667 0.164583 0.358333
0.250000 0.162500 0.475000
0.258333 0.160417 0.591667
0.266667 0.158333 0.708333
0.275000 0.156250 0.825000
0.283333 0.154167 0.941667
0.291667 0.152083 1.000000
0.233333 0.291667 0.116667
0.241667 0.289583 0.233333
0.250000 0.287500 0.350000
0.258333 0.285417 0.466667
0.266667 0.283333 0.583333
0.275000 0.281250 0.700000
0.283333 0.279167 0.816667
0.291667 0.277083 0.933333
0.300000 0.275000 1.000000
0.241667 0.414583 0.108333
0.250000 0.412500 0.225000
0.258333 0.410417 0.341667
0.266667 0.408333 0.458333
0.275000 0.406250 0.575000
0.283333 0.404167 0.691667
0.291667 0.402083 0.808333
0.300000 0.400000 0.925000
0.308333 0.397917 1.000000
0.250000 0.537500 0.100000
0.258333 0.535417 0.216667
0.266667 0.533333 0.333333
0.275000 0.531250 0.450000
0.283333 0.529167 0.566667
0.291667 0.527083 0.683333
0.300000 0.525000 0.800000
0.308333 0.522917 0.916667
0.316667 0.520833 1.000000
0.258333 0.660417 0.091667
0.266667 0.658333 0.208333
0.275000 0.656250 0.325000
0.283333 0.654167 0.441667
0.291667 0.652083 0.558333
0.300000 0.650000 0.675000
0.308333 0.647917 0.791667
0.316667 0.645833 0.908333
0.325000 0.643750 1.000000
0.266667 0.783333 0.083333
0.275000 0.781250 0.200000
0.283333 0.779167 0.316667
0.291667 0.777083 0.433333
0.300000 0.775000 0.550000
0.308333 0.772917 0.666667
0.316667 0.770833 0.783333
0.325000 0.768750 0.900000
0.333333 0.766667 1.000000
0.275000 0.906250 0.075000
0.283333 0.904167 0.191667
0.291667 0.902083 0.308333
0.300000 0.900000 0.425000
0.308333 0.897917 0.541667
0.316667 0.895833 0.658333
0.325000 0.893750 0.775000
0.333333 0.891667 0.891667
0.341667 0.889583 1.000000
0.283333 1.000000 0.066667
0.291667 1.000000 0.183333
0.300000 1.000000 0.300000
0.308333 1.000000 0.416667
0.316667 1.000000 0.533333
0.325000 1.000000 0.650000
0.333333 1.000000 0.766667
0.341667 1.000000 0.883333
0.350000 1.000000 1.000000
0.350000 0.043750 0.125000
0.358333 0.041667 0.241667
0.366667 0.039583 0.358333
0.375000 0.037500 0.475000
0.383333 0.035417 0.591667
0.391667 0.033333 0.708333
0.400000 0.031250 0.825000
0.408333 0.029167 0.941667
0.416667 0.027083 1.000000
0.358333 0.166667 0.116667
0.366667 0.164583 0.233333
0.375000 0.162500 0.350000
0.383333 0.160417 0.466667
0.391667 0.158333 0.583333
0.400000 0.156250 0.700000
0.408333 0.154167 0.816667
0.416667 0.152083 0.933333
0.425000 0.150000 1.000000
0.366667 0.289583 0.108333
0.375000 0.287500 0.225000
0.383333 0.285417 0.341667
0.391667 0.283333 0.458333
0.400000 0.281250 0.575000
0.408333 0.279167 0.691667
0.416667 0.277083 0.808333
0.425000 0.275000 0.925000
0.433333 0.272917 1.000000
0.375000 0.412500 0.100000
0.383333 0.410417 0.216667
0.391667 0.408333 0.333333
0.400000 0.406250 0.450000
0.408333 0.404167 0.566667
0.416667 0.402083 0.683333
0.425000 0.400000 0.800000
0.433333 0.397917 0.916667
0.441667 0.395833 1.000000
0.383333 0.535417 0.091667
0.391667 0.533333 0.208333
0.400000 0.531250 0.325000
0.408333 0.529167 0.441667
0.416667 0.527083 0.558333
0.425000 0.525000 0.675000
0.433333 0.522917 0.791667
0.441667 0.520833 0.908333
0.450000 0.518750 1.000000
0.391667 0.658333 0.083333
0.400000 0.656250 0.200000
0.408333 0.654167 0.316667
0.416667 0.652083 0.433333
0.425000 0.650000 0.550000
0.433333 0.647917 0.666667
0.441667 0.645833 0.783333
0.450000 0.643750 0.900000
0.458333 0.641667 1.000000
0.400000 0.781250 0.075000
0.408333 0.779167 0.191667
0.416667 0.777083 0.308333
0.425000 0.775000 0.425000
0.433333 0.772917 0.541667
0.441667 0.770833 0.658333
0.450000 0.768750 0.775000
0.458333 0.766667 0.891667
0.466667 0.764583 1.000000
0.408333 0.904167 0.066667
0.416667 0.902083 0.183333
0.425000 0.900000 0.300000
0.433333 0.897917 0.416667
0.441667 0.895833 0.533333
0.450000 0.893750 0.650000
0.458333 0.891667 0.766667
0.466667 0.889583 0.883333
0.475000 0.887500 1.000000
0.416667 1.000000 0.058333
0.425000 1.000000 0.175000
0.433333 1.000000 0.291667
0.441667 1.000000 0.408333
0.450000 1.000000 0.525000
0.458333 1.000000 0.641667
0.466667 1.000000 0.758333
0.475000 1.000000 0.875000
0.483333 1.000000 0.991667
0.483333 0.041667 0.116667
0.491667 0.039583 0.233333
0.500000 0.037500 0.350000
0.508333 0.035417 0.466667
0.516667 0.033333 0.583333
0.525000 0.031250 0.700000
0.533333 0.029167 0.816667
0.541667 0.027083 0.933333
0.550000 0.025000 1.000000
0.491667 0.164583 0.108333
0.500000 0.162500 0.225000
0.508333 0.160417 0.341667
0.516667 0.158333 0.458333
0.525000 0.156250 0.575000
0.533333 0.154167 0.691667
0.541667 0.152083 0.808333
0.550000 0.150000 0.925000
0.558333 0.147917 1.000000
0.500000 0.287500 0.100000
0.508333 0.285417 0.216667
0.516667 0.283333 0.333333
0.525000 0.281250 0.450000
0.533333 0.279167 0.566667
0.541667 0.277083 0.683333
0.550000 0.275000 0.800000
0.558333 0.272917 0.916667
0.566667 0.270833 1.000000
0.508333 0.410417 0.091667
0.516667 0.408333 0.208333
0.525000 0.406250 0.325000
0.533333 0.404167 0.441667
0.541667 0.402083 0.558333
0.550000 0.400000 0.675000
0.558333 0.397917 0.791667
0.566667 0.395833 0.908333
0.575000 0.393750 1.000000
0.516667 0.533333 0.083333
0.525000 0.531250 0.200000
0.533333 0.529167 0.316667
0.541667 0.527083 0.433333
0.550000 0.525000 0.550000
0.558333 0.522917 0.666667
0.566667 0.520833 0.783333
0.575000 0.518750 0.900000
0.583333 0.516667 1.000000
0.525000 0.656250 0.075000
0.533333 0.654167 0.191667
0.541667 0.652083 0.308333
0.550000 0.650000 0.425000
0.558333 0.647917 0.541667
0.566667 0.645833 0.658333
0.575000 0.643750 0.775000
0.583333 0.641667 0.891667
0.591667 0.639583 1.000000
0.533333 0.779167 0.066667
0.541667 0.777083 0.183333
0.550000 0.775000 0.300000
0.558333 0.772917 0.416667
0.566667 0.770833 0.533333
0.575000 0.768750 0.650000
0.583333 0.766667 0.766667
0.591667 0.764583 0.883333
0.600000 0.762500 1.000000
0.541667 0.902083 0.058333
0.550000 0.900000 0.175000
0.558333 0.897917 0.291667
0.566667 0.895833 0.408333
0.575000 0.893750 0.525000
0.583333 0.891667 0.641667
0.591667 0.889583 0.758333
0.600000 0.887500 0.875000
0.608333 0.885417 0.991667
0.550000 1.000000 0.050000
0.558333 1.000000 0.166667
0.566667 1.000000 0.283333
0.575000 1.000000 0.400000
0.583333 1.000000 0.516667
0.591667 1.000000 0.633333
0.600000 1.000000 0.750000
0.608333 1.000000 0.866667
0.616667 1.000000 0.983333
0.616667 0.039583 0.108333
0.625000 0.037500 0.225000
0.633333 0.035417 0.341667
0.641667 0.033333 0.458333
0.650000 0.031250 0.575000
0.658333 0.029167 0.691667
0.666667 0.027083 0.808333
0.675000 0.025000 0.925000
0.683333 0.022917 1.000000
0.625000 0.162500 0.100000
0.633333 0.160417 0.216667
0.641667 0.158333 0.333333
0.650000 0.156250 0.450000
0.658333 0.154167 0.566667
0.666667 0.152083 0.683333
0.675000 0.150000 0.800000
0.683333 0.147917 0.916667
0.691667 0.145833 1.000000
0.633333 0.285417 0.091667
0.641667 0.283333 0.208333
0.650000 0.281250 0.325000
0.658333 0.279167 0.441667
0.666667 0.277083 0.558333
0.675000 0.275000 0.675000
0.683333 0.272917 0.791667
0.691667 0.270833 0.908333
0.700000 0.268750 1.000000
0.641667 0.408333 0.083333
0.650000 0.406250 0.200000
0.658333 0.404167 0.316667
0.666667 0.402083 0.433333
0.675000 0.400000 0.550000
0.683333 0.397917 0.666667
0.691667 0.395833 0.783333
0.700000 0.393750 0.900000
0.708333 0.391667 1.000000
0.650000 0.531250 0.075000
0.658333 0.529167 0.191667
0.666667 0.527083 0.308333
0.675000 0.525000 0.425000
0.683333 0.522917 0.541667
0.691667 0.520833 0.658333
0.700000 0.518750 0.775000
0.708333 0.516667 0.891667
0.716667 0.514583 1.000000
0.658333 0.654167 0.066667
0.666667 0.652083 0.183333
0.675000 0.650000 0.300000
0.683333 0.647917 0.416667
0.691667 0.645833 0.533333
0.700000 0.643750 0.650000
0.708333 0.641667 0.766667
0.716667 0.639583 0.883333
0.725000 0.637500 1.000000
0.666667 0.777083 0.058333
0.675000 0.775000 0.175000
0.683333 0.772917 0.291667
0.691667 0.770833 0.408333
0.700000 0.768750 0.525000
0.708333 0.766667 0.641667
0.716667 0.764583 0.758333
0.725000 0.762500 0.875000
0.733333 0.760417 0.991667
0.675000 0.900000 0.050000
0.683333 0.897917 0.166667
0.691667 0.895833 0.283333
0.700000 0.893750 0.400000
0.708333 0.891667 0.516667
0.716667 0.889583 0.633333
0.725000 0.887500 0.750000
0.733333 0.885417 0.866667
0.741667 0.883333 0.983333
0.683333 1.000000 0.041667
0.691667 1.000000 0.158333
0.700000 1.000000 0.275000
0.708333 1.000000 0.391667
0.716667 1.000000 0.508333
0.725000 1.000000 0.625000
0.733333 1.000000 0.741667
0.741667 1.000000 0.858333
0.750000 1.000000 0.975000
0.750000 0.037500 0.100000
0.758333 0.035417 0.216667
0.766667 0.033333 0.333333
0.775000 0.031250 0.450000
0.783333 0.029167 0.566667
0.791667 0.027083 0.683333
0.800000 0.025000 0.800000
0.808333 0.022917 0.916667
0.816667 0.020833 1.000000
0.758333 0.160417 0.091667
0.766667 0.158333 0.208333
0.775000 0.156250 0.325000
0.783333 0.154167 0.441667
0.791667 0.152083 0.558333
0.800000 0.150000 0.675000
0.808333 0.147917 0.791667
0.816667 0.145833 0.908333
0.825000 0.143750 1.000000
0.766667 0.283333 0.083333
0.775000 0.281250 0.200000
0.783333 0.279167 0.316667
0.791667 0.277083 0.433333
0.800000 0.275000 0.550000
0.808333 0.272917 0.666667
0.816667 0.270833 0.783333
0.825000 0.268750 0.900000
0.833333 0.266667 1.000000
0.775000 0.406250 0.075000
0.783333 0.404167 0.191667
0.791667 0.402083 0.308333
0.800000 0.400000 0.425000
0.808333 0.397917 0.541667
0.816667 0.395833 0.658333
0.825000 0.393750 0.775000
0.833333 0.391667 0.891667
0.841667 0.389583 1.000000
0.783333 0.529167 0.066667
0.791667 0.527083 0.183333
0.800000 0.525000 0.300000
0.808333 0.522917 0.416667
0.816667 0.520833 0.533333
0.825000 0.518750 0.650000
0.833333 0.516667 0.766667
0.841667 0.514583 0.883333
0.850000 0.512500 1.000000
0.791667 0.652083 0.058333
0.800000 0.650000 0.175000
0.808333 0.647917 0.291667
0.816667 0.645833 0.408333
0.825000 0.643750 0.525000
0.833333 0.641667 0.641667
0.841667 0.639583 0.758333
0.850000 0.637500 0.875000
0.858333 0.635417 0.991667
0.800000 0.775000 0.050000
0.808333 0.772917 0.166667
0.816667 0.770833 0.283333
0.825000 0.768750 0.400000
0.833333 0.766667 0.516667
0.841667 0.764583 0.633333
0.850000 0.762500 0.750000
0.858333 0.760417 0.866667
0.866667 0.758333 0.983333
0.808333 0.897917 0.041667
0.816667 0.895833 0.158333
0.825000 0.893750 0.275000
0.833333 0.891667 0.391667
0.841667 0.889583 0.508333
0.850000 0.887500 0.625000
0.858333 0.885417 0.741667
0.866667 0.883333 0.858333
0.875000 0.881250 0.975000
0.816667 1.000000 0.033333
0.825000 1.000000 0.150000
0.833333 1.000000 0.266667
0.841667 1.000000 0.383333
0.850000 1.000000 0.500000
0.858333 1.000000 0.616667
0.866667 1.000000 0.733333
0.875000 1.000000 0.850000
0.883333 1.000000 0.966667
0.883333 0.035417 0.091667
0.891667 0.033333 0.208333
0.900000 0.031250 0.325000
0.908333 0.029167 0.441667
0.916667 0.027083 0.558333
0.925000 0.025000 0.675000
0.933333 0.022917 0.791667
0.941667 0.020833 0.908333
0.950000 0.018750 1.000000
0.891667 0.158333 0.083333
0.900000 0.156250 0.200000
0.908333 0.154167 0.316667
0.916667 0.152083 0.433333
0.925000 0.150000 0.550000
0.933333 0.147917 0.666667
0.941667 0.145833 0.783333
0.950000 0.143750 0.900000
0.958333 0.141667 1.000000
0.900000 0.281250 0.075000
0.908333 0.279167 0.191667
0.916667 0.277083 0.308333
0.925000 0.275000 0.425000
0.933333 0.272917 0.541667
0.941667 0.270833 0.658333
0.950000 0.268750 0.775000
0.958333 0.266667 0.891667
0.966667 0.264583 1.000000
0.908333 0.404167 0.066667
0.916667 0.402083 0.183333
0.925000 0.400000 0.300000
0.933333 0.397917 0.416667
0.941667 0.395833 0.533333
0.950000 0.393750 0.650000
0.958333 0.391667 0.766667
0.966667 0.389583 0.883333
0.975000 0.387500 1.000000
0.916667 0.527083 0.058333
0.925000 0.525000 0.175000
0.933333 0.522917 0.291667
0.941667 0.520833 0.408333
0.950000 0.518750 0.525000
0.958333 0.516667 0.641667
0.966667 0.514583 0.758333
0.975000 0.512500 0.875000
0.983333 0.510417 0.991667
0.925000 0.650000 0.050000
0.933333 0.647917 0.166667
0.941667 0.645833 0.283333
0.950000 0.643750 0.400000
0.958333 0.641667 0.516667
0.966667 0.639583 0.633333
0.975000 0.637500 0.750000
0.983333 0.635417 0.866667
0.991667 0.633333 0.983333
0.933333 0.772917 0.041667
0.941667 0.770833 0.158333
0.950000 0.768750 0.275000
0.958333 0.766667 0.391667
0.966667 0.764583 0.508333
0.975000 0.762500 0.625000
0.983333 0.760417 0.741667
0.991667 0.758333 0.858333
1.000000 0.756250 0.975000
0.941667 0.895833 0.033333
0.950000 0.893750 0.150000
0.958333 0.891667 0.266667
0.966667 0.889583 0.383333
0.975000 0.887500 0.500000
0.983333 0.885417 0.616667
0.991667 0.883333 0.733333
1.000000 0.881250 0.850000
1.000000 0.879167 0.966667
0.950000 1.000000 0.025000
0.958333 1.000000 0.141667
0.966667 1.000000 0.258333
0.975000 1.000000 0.375000
0.983333 1.000000 0.491667
0.991667 1.000000 0.608333
1.000000 1.000000 0.725000
1.000000 1.000000 0.841667
1.000000 1.000000 0.958333
1.000000 0.033333 0.083333
1.000000 0.031250 0.200000
1.000000 0.029167 0.316667
1.000000 0.027083 0.433333
1.000000 0.025000 0.550000
1.000000 0.022917 0.666667
1.000000 0.020833 0.783333
1.000000 0.018750 0.900000
1.000000 0.016667 1.000000
1.000000 0.156250 0.075000
1.000000 0.154167 0.191667
1.000000 0.152083 0.308333
1.000000 0.150000 0.425000
1.000000 0.147917 0.541667
1.000000 0.145833 0.658333
1.000000 0.143750 0.775000
1.000000 0.141667 0.891667
1.000000 0.139583 1.000000
1.000000 0.279167 0.066667
1.000000 0.277083 0.183333
1.000000 0.275000 0.300000
1.000000 0.272917 0.416667
1.000000 0.270833 0.533333
1.000000 0.268750 0.650000
1.000000 0.266667 0.766667
1.000000 0.264583 0.883333
1.000000 0.262500 1.000000
1.000000 0.402083 0.058333
1.000000 0.400000 0.175000
1.000000 0.397917 0.291667
1.000000 0.395833 0.408333
1.000000 0.393750 0.525000
1.000000 0.391667 0.641667
1.000000 0.389583 0.758333
1.000000 0.387500 0.875000
1.000000 0.385417 0.991667
1.000000 0.525000 0.050000
1.000000 0.522917 0.166667
1.000000 0.520833 0.283333
1.000000 0.518750 0.400000
1.000000 0.516667 0.516667
1.000000 0.514583 0.633333
1.000000 0.512500 0.750000
1.000000 0.510417 0.866667
1.000000 0.508333 0.983333
1.000000 0.647917 0.041667
1.000000 0.645833 0.158333
1.000000 0.643750 0.275000
1.000000 0.641667 0.391667
1.000000 0.639583 0.508333
1.000000 0.637500 0.625000
1.000000 0.635417 0.741667
1.000000 0.633333 0.858333
1.000000 0.631250 0.975000
1.000000 0.770833 0.033333
1.000000 0.768750 0.150000
1.000000 0.766667 0.266667
1.000000 0.764583 0.383333
1.000000 0.762500 0.500000
1.000000 0.760417 0.616667
1.000000 0.758333 0.733333
1.000000 0.756250 0.850000
1.000000 0.754167 0.966667
1.000000 0.893750 0.025000
1.000000 0.891667 0.141667
1.000000 0.889583 0.258333
1.000000 0.887500 0.375000
1.000000 0.885417 0.491667
1.000000 0.883333 0.608333
1.000000 0.881250 0.725000
1.000000 0.879167 0.841667
1.000000 0.877083 0.958333
1.000000 1.000000 0.016667
1.000000 1.000000 0.133333
1.000000 1.000000 0.250000
1.000000 1.000000 0.366667
1.000000 1.000000 0.483333
1.000000 1.000000 0.600000
1.000000 1.000000 0.716667
1.000000 1.000000 0.833333
1.000000 1.000000 0.950000
