examples/cinematic.cube
# Simple Teal-Orange LUT (generated)
LUT_3D_SIZE 17
DOMAIN_MIN 0.0 0.0 0.0
DOMAIN_MAX 1.0 1.0 1.0
0.000000 0.050000 0.150000
0.000000 0.048958 0.208333
0.000000 0.047917 0.266667
0.000000 0.046875 0.325000
0.000000 0.045833 0.383333
0.000000 0.044792 0.441667
0.000000 0.043750 0.500000
0.000000 0.042708 0.558333
0.000000 0.041667 0.616667
0.000000 0.040625 0.675000
0.000000 0.039583 0.733333
0.000000 0.038542 0.791667
0.000000 0.037500 0.850000
0.004167 0.036458 0.908333
0.008333 0.035417 0.966667
0.012500 0.034375 1.000000
0.016667 0.033333 1.000000
0.000000 0.111458 0.145833
0.000000 0.110417 0.204167
0.000000 0.109375 0.262500
0.000000 0.108333 0.320833
0.000000 0.107292 0.379167
0.000000 0.106250 0.437500
0.000000 0.105208 0.495833
0.000000 0.104167 0.554167
0.000000 0.103125 0.612500
0.000000 0.102083 0.670833
0.000000 0.101042 0.729167
0.000000 0.100000 0.787500
0.004167 0.098958 0.845833
0.008333 0.097917 0.904167
0.012500 0.096875 0.962500
0.016667 0.095833 1.000000
0.020833 0.094792 1.000000
0.000000 0.172917 0.141667
0.000000 0.171875 0.200000
0.000000 0.170833 0.258333
0.000000 0.169792 0.316667
0.000000 0.168750 0.375000
0.000000 0.167708 0.433333
0.000000 0.166667 0.491667
0.000000 0.165625 0.550000
0.000000 0.164583 0.608333
0.000000 0.163542 0.666667
0.000000 0.162500 0.725000
0.004167 0.161458 0.783333
0.008333 0.160417 0.841667
0.012500 0.159375 0.900000
0.016667 0.158333 0.958333
0.020833 0.157292 1.000000
0.025000 0.156250 1.000000
0.000000 0.234375 0.137500
0.000000 0.233333 0.195833
0.000000 0.232292 0.254167
0.000000 0.231250 0.312500
0.000000 0.230208 0.370833
0.000000 0.229167 0.429167
0.000000 0.228125 0.487500
0.000000 0.227083 0.545833
0.000000 0.226042 0.604167
0.000000 0.225000 0.662500
0.004167 0.223958 0.720833
0.008333 0.222917 0.779167
0.012500 0.221875 0.837500
0.016667 0.220833 0.895833
0.020833 0.219792 0.954167
0.025000 0.218750 1.000000
0.029167 0.217708 1.000000
0.000000 0.295833 0.133333
0.000000 0.294792 0.191667
0.000000 0.293750 0.250000
0.000000 0.292708 0.308333
0.000000 0.291667 0.366667
0.000000 0.290625 0.425000
0.000000 0.289583 0.483333
0.000000 0.288542 0.541667
0.000000 0.287500 0.600000
0.004167 0.286458 0.658333
0.008333 0.285417 0.716667
0.012500 0.284375 0.775000
0.016667 0.283333 0.833333
0.020833 0.282292 0.891667
0.025000 0.281250 0.950000
0.029167 0.280208 1.000000
0.033333 0.279167 1.000000
0.000000 0.357292 0.129167
0.000000 0.356250 0.187500
0.000000 0.355208 0.245833
0.000000 0.354167 0.304167
0.000000 0.353125 0.362500
0.000000 0.352083 0.420833
0.000000 0.351042 0.479167
0.000000 0.350000 0.537500
0.004167 0.348958 0.595833
0.008333 0.347917 0.654167
0.012500 0.346875 0.712500
0.016667 0.345833 0.770833
0.020833 0.344792 0.829167
0.025000 0.343750 0.887500
0.029167 0.342708 0.945833
0.033333 0.341667 1.000000
0.037500 0.340625 1.000000
0.000000 0.418750 0.125000
0.000000 0.417708 0.183333
0.000000 0.416667 0.241667
0.000000 0.415625 0.300000
0.000000 0.414583 0.358333
0.000000 0.413542 0.416667
0.000000 0.412500 0.475000
0.004167 0.411458 0.533333
0.008333 0.410417 0.591667
0.012500 0.409375 0.650000
0.016667 0.408333 0.708333
0.020833 0.407292 0.766667
0.025000 0.406250 0.825000
0.029167 0.405208 0.883333
0.033333 0.404167 0.941667
0.037500 0.403125 1.000000
0.041667 0.402083 1.000000
0.000000 0.480208 0.120833
0.000000 0.479167 0.179167
0.000000 0.478125 0.237500
0.000000 0.477083 0.295833
0.000000 0.476042 0.354167
0.000000 0.475000 0.412500
0.004167 0.473958 0.470833
0.008333 0.472917 0.529167
0.012500 0.471875 0.587500
0.016667 0.470833 0.645833
0.020833 0.469792 0.704167
0.025000 0.468750 0.762500
0.029167 0.467708 0.820833
0.033333 0.466667 0.879167
0.037500 0.465625 0.937500
0.041667 0.464583 0.995833
0.045833 0.463542 1.000000
0.000000 0.541667 0.116667
0.000000 0.540625 0.175000
0.000000 0.539583 0.233333
0.000000 0.538542 0.291667
0.000000 0.537500 0.350000
0.004167 0.536458 0.408333
0.008333 0.535417 0.466667
0.012500 0.534375 0.525000
0.016667 0.533333 0.583333
0.020833 0.532292 0.641667
0.025000 0.531250 0.700000
0.029167 0.530208 0.758333
0.033333 0.529167 0.816667
0.037500 0.528125 0.875000
0.041667 0.527083 0.933333
0.045833 0.526042 0.991667
0.050000 0.525000 1.000000
0.000000 0.603125 0.112500
0.000000 0.602083 0.170833
0.000000 0.601042 0.229167
0.000000 0.600000 0.287500
0.004167 0.598958 0.345833
0.008333 0.597917 0.404167
0.012500 0.596875 0.462500
0.016667 0.595833 0.520833
0.020833 0.594792 0.579167
0.025000 0.593750 0.637500
0.029167 0.592708 0.695833
0.033333 0.591667 0.754167
0.037500 0.590625 0.812500
0.041667 0.589583 0.870833
0.045833 0.588542 0.929167
0.050000 0.587500 0.987500
0.054167 0.586458 1.000000
0.000000 0.664583 0.108333
0.000000 0.663542 0.166667
0.000000 0.662500 0.225000
0.004167 0.661458 0.283333
0.008333 0.660417 0.341667
0.012500 0.659375 0.400000
0.016667 0.658333 0.458333
0.020833 0.657292 0.516667
0.025000 0.656250 0.575000
0.029167 0.655208 0.633333
0.033333 0.654167 0.691667
0.037500 0.653125 0.750000
0.041667 0.652083 0.808333
0.045833 0.651042 0.866667
0.050000 0.650000 0.925000
0.054167 0.648958 0.983333
0.058333 0.647917 1.000000
0.000000 0.726042 0.104167
0.000000 0.725000 0.162500
0.004167 0.723958 0.220833
0.008333 0.722917 0.279167
0.012500 0.721875 0.337500
0.016667 0.720833 0.395833
0.020833 0.719792 0.454167
0.025000 0.718750 0.512500
0.029167 0.717708 0.570833
0.033333 0.716667 0.629167
0.037500 0.715625 0.687500
0.041667 0.714583 0.745833
0.045833 0.713542 0.804167
0.050000 0.712500 0.862500
0.054167 0.711458 0.920833
0.058333 0.710417 0.979167
0.062500 0.709375 1.000000
0.000000 0.787500 0.100000
0.004167 0.786458 0.158333
0.008333 0.785417 0.216667
0.012500 0.784375 0.275000
0.016667 0.783333 0.333333
0.020833 0.782292 0.391667
0.025000 0.781250 0.450000
0.029167 0.780208 0.508333
0.033333 0.779167 0.566667
0.037500 0.778125 0.625000
0.041667 0.777083 0.683333
0.045833 0.776042 0.741667
0.050000 0.775000 0.800000
0.054167 0.773958 0.858333
0.058333 0.772917 0.916667
0.062500 0.771875 0.975000
0.066667 0.770833 1.000000
0.004167 0.848958 0.095833
0.008333 0.847917 0.154167
0.012500 0.846875 0.212500
0.016667 0.845833 0.270833
0.020833 0.844792 0.329167
0.025000 0.843750 0.387500
0.029167 0.842708 0.445833
0.033333 0.841667 0.504167
0.037500 0.840625 0.562500
0.041667 0.839583 0.620833
0.045833 0.838542 0.679167
0.050000 0.837500 0.737500
0.054167 0.836458 0.795833
0.058333 0.835417 0.854167
0.062500 0.834375 0.912500
0.066667 0.833333 0.970833
0.070833 0.832292 1.000000
0.008333 0.910417 0.091667
0.012500 0.909375 0.150000
0.016667 0.908333 0.208333
0.020833 0.907292 0.266667
0.025000 0.906250 0.325000
0.029167 0.905208 0.383333
0.033333 0.904167 0.441667
0.037500 0.903125 0.500000
0.041667 0.902083 0.558333
0.045833 0.901042 0.616667
0.050000 0.900000 0.675000
0.054167 0.898958 0.733333
0.058333 0.897917 0.791667
0.062500 0.896875 0.850000
0.066667 0.895833 0.908333
0.070833 0.894792 0.966667
0.075000 0.893750 1.000000
0.012500 0.971875 0.087500
0.016667 0.970833 0.145833
0.020833 0.969792 0.204167
0.025000 0.968750 0.262500
0.029167 0.967708 0.320833
0.033333 0.966667 0.379167
0.037500 0.965625 0.437500
0.041667 0.964583 0.495833
0.045833 0.963542 0.554167
0.050000 0.962500 0.612500
0.054167 0.961458 0.670833
0.058333 0.960417 0.729167
0.062500 0.959375 0.787500
0.066667 0.958333 0.845833
0.070833 0.957292 0.904167
0.075000 0.956250 0.962500
0.079167 0.955208 1.000000
0.016667 1.000000 0.083333
0.020833 1.000000 0.141667
0.025000 1.000000 0.200000
0.029167 1.000000 0.258333
0.033333 1.000000 0.316667
0.037500 1.000000 0.375000
0.041667 1.000000 0.433333
0.045833 1.000000 0.491667
0.050000 1.000000 0.550000
0.054167 1.000000 0.608333
0.058333 1.000000 0.666667
0.062500 1.000000 0.725000
0.066667 1.000000 0.783333
0.070833 1.000000 0.841667
0.075000 1.000000 0.900000
0.079167 1.000000 0.958333
0.083333 1.000000 1.000000
0.016667 0.048958 0.145833
0.020833 0.047917 0.204167
0.025000 0.046875 0.262500
0.029167 0.045833 0.320833
0.033333 0.044792 0.379167
0.037500 0.043750 0.437500
0.041667 0.042708 0.495833
0.045833 0.041667 0.554167
0.050000 0.040625 0.612500
0.054167 0.039583 0.670833
0.058333 0.038542 0.729167
0.062500 0.037500 0.787500
0.066667 0.036458 0.845833
0.070833 0.035417 0.904167
0.075000 0.034375 0.962500
0.079167 0.033333 1.000000
0.083333 0.032292 1.000000
0.020833 0.110417 0.141667
0.025000 0.109375 0.200000
0.029167 0.108333 0.258333
0.033333 0.107292 0.316667
0.037500 0.106250 0.375000
0.041667 0.105208 0.433333
0.045833 0.104167 0.491667
0.050000 0.103125 0.550000
0.054167 0.102083 0.608333
0.058333 0.101042 0.666667
0.062500 0.100000 0.725000
0.066667 0.098958 0.783333
0.070833 0.097917 0.841667
0.075000 0.096875 0.900000
0.079167 0.095833 0.958333
0.083333 0.094792 1.000000
0.087500 0.093750 1.000000
0.025000 0.171875 0.137500
0.029167 0.170833 0.195833
0.033333 0.169792 0.254167
0.037500 0.168750 0.312500
0.041667 0.167708 0.370833
0.045833 0.166667 0.429167
0.050000 0.165625 0.487500
0.054167 0.164583 0.545833
0.058333 0.163542 0.604167
0.062500 0.162500 0.662500
0.066667 0.161458 0.720833
0.070833 0.160417 0.779167
0.075000 0.159375 0.837500
0.079167 0.158333 0.895833
0.083333 0.157292 0.954167
0.087500 0.156250 1.000000
0.091667 0.155208 1.000000
0.029167 0.233333 0.133333
0.033333 0.232292 0.191667
0.037500 0.231250 0.250000
0.041667 0.230208 0.308333
0.045833 0.229167 0.366667
0.050000 0.228125 0.425000
0.054167 0.227083 0.483333
0.058333 0.226042 0.541667
0.062500 0.225000 0.600000
0.066667 0.223958 0.658333
0.070833 0.222917 0.716667
0.075000 0.221875 0.775000
0.079167 0.220833 0.833333
0.083333 0.219792 0.891667
0.087500 0.218750 0.950000
0.091667 0.217708 1.000000
0.095833 0.216667 1.000000
0.033333 0.294792 0.129167
0.037500 0.293750 0.187500
0.041667 0.292708 0.245833
0.045833 0.291667 0.304167
0.050000 0.290625 0.362500
0.054167 0.289583 0.420833
0.058333 0.288542 0.479167
0.062500 0.287500 0.537500
0.066667 0.286458 0.595833
0.070833 0.285417 0.654167
0.075000 0.284375 0.712500
0.079167 0.283333 0.770833
0.083333 0.282292 0.829167
0.087500 0.281250 0.887500
0.091667 0.280208 0.945833
0.095833 0.279167 1.000000
0.100000 0.278125 1.000000
0.037500 0.356250 0.125000
0.041667 0.355208 0.183333
0.045833 0.354167 0.241667
0.050000 0.353125 0.300000
0.054167 0.352083 0.358333
0.058333 0.351042 0.416667
0.062500 0.350000 0.475000
0.066667 0.348958 0.533333
0.070833 0.347917 0.591667
0.075000 0.346875 0.650000
0.079167 0.345833 0.708333
0.083333 0.344792 0.766667
0.087500 0.343750 0.825000
0.091667 0.342708 0.883333
0.095833 0.341667 0.941667
0.100000 0.340625 1.000000
0.104167 0.339583 1.000000
0.041667 0.417708 0.120833
0.045833 0.416667 0.179167
0.050000 0.415625 0.237500
0.054167 0.414583 0.295833
0.058333 0.413542 0.354167
0.062500 0.412500 0.412500
0.066667 0.411458 0.470833
0.070833 0.410417 0.529167
0.075000 0.409375 0.587500
0.079167 0.408333 0.645833
0.083333 0.407292 0.704167
0.087500 0.406250 0.762500
0.091667 0.405208 0.820833
0.095833 0.404167 0.879167
0.100000 0.403125 0.937500
0.104167 0.402083 0.995833
0.108333 0.401042 1.000000
0.045833 0.479167 0.116667
0.050000 0.478125 0.175000
0.054167 0.477083 0.233333
0.058333 0.476042 0.291667
0.062500 0.475000 0.350000
0.066667 0.473958 0.408333
0.070833 0.472917 0.466667
0.075000 0.471875 0.525000
0.079167 0.470833 0.583333
0.083333 0.469792 0.641667
0.087500 0.468750 0.700000
0.091667 0.467708 0.758333
0.095833 0.466667 0.816667
0.100000 0.465625 0.875000
0.104167 0.464583 0.933333
0.108333 0.463542 0.991667
0.112500 0.462500 1.000000
0.050000 0.540625 0.112500
0.054167 0.539583 0.170833
0.058333 0.538542 0.229167
0.062500 0.537500 0.287500
0.066667 0.536458 0.345833
0.070833 0.535417 0.404167
0.075000 0.534375 0.462500
0.079167 0.533333 0.520833
0.083333 0.532292 0.579167
0.087500 0.531250 0.637500
0.091667 0.530208 0.695833
0.095833 0.529167 0.754167
0.100000 0.528125 0.812500
0.104167 0.527083 0.870833
0.108333 0.526042 0.929167
0.112500 0.525000 0.987500
0.116667 0.523958 1.000000
0.054167 0.602083 0.108333
0.058333 0.601042 0.166667
0.062500 0.600000 0.225000
0.066667 0.598958 0.283333
0.070833 0.597917 0.341667
0.075000 0.596875 0.400000
0.079167 0.595833 0.458333
0.083333 0.594792 0.516667
0.087500 0.593750 0.575000
0.091667 0.592708 0.633333
0.095833 0.591667 0.691667
0.100000 0.590625 0.750000
0.104167 0.589583 0.808333
0.108333 0.588542 0.866667
0.112500 0.587500 0.925000
0.116667 0.586458 0.983333
0.120833 0.585417 1.000000
0.058333 0.663542 0.104167
0.062500 0.662500 0.162500
0.066667 0.661458 0.220833
0.070833 0.660417 0.279167
0.075000 0.659375 0.337500
0.079167 0.658333 0.395833
0.083333 0.657292 0.454167
0.087500 0.656250 0.512500
0.091667 0.655208 0.570833
0.095833 0.654167 0.629167
0.100000 0.653125 0.687500
0.104167 0.652083 0.745833
0.108333 0.651042 0.804167
0.112500 0.650000 0.862500
0.116667 0.648958 0.920833
0.120833 0.647917 0.979167
0.125000 0.646875 1.000000
0.062500 0.725000 0.100000
0.066667 0.723958 0.158333
0.070833 0.722917 0.216667
0.075000 0.721875 0.275000
0.079167 0.720833 0.333333
0.083333 0.719792 0.391667
0.087500 0.718750 0.450000
0.091667 0.717708 0.508333
0.095833 0.716667 0.566667
0.100000 0.715625 0.625000
0.104167 0.714583 0.683333
0.108333 0.713542 0.741667
0.112500 0.712500 0.800000
0.116667 0.711458 0.858333
0.120833 0.710417 0.916667
0.125000 0.709375 0.975000
0.129167 0.708333 1.000000
0.066667 0.786458 0.095833
0.070833 0.785417 0.154167
0.075000 0.784375 0.212500
0.079167 0.783333 0.270833
0.083333 0.782292 0.329167
0.087500 0.781250 0.387500
0.091667 0.780208 0.445833
0.095833 0.779167 0.504167
0.100000 0.778125 0.562500
0.104167 0.777083 0.620833
0.108333 0.776042 0.679167
0.112500 0.775000 0.737500
0.116667 0.773958 0.795833
0.120833 0.772917 0.854167
0.125000 0.771875 0.912500
0.129167 0.770833 0.970833
0.133333 0.769792 1.000000
0.070833 0.847917 0.091667
0.075000 0.846875 0.150000
0.079167 0.845833 0.208333
0.083333 0.844792 0.266667
0.087500 0.843750 0.325000
0.091667 0.842708 0.383333
0.095833 0.841667 0.441667
0.100000 0.840625 0.500000
0.104167 0.839583 0.558333
0.108333 0.838542 0.616667
0.112500 0.837500 0.675000
0.116667 0.836458 0.733333
0.120833 0.835417 0.791667
0.125000 0.834375 0.850000
0.129167 0.833333 0.908333
0.133333 0.832292 0.966667
0.137500 0.831250 1.000000
0.075000 0.909375 0.087500
0.079167 0.908333 0.145833
0.083333 0.907292 0.204167
0.087500 0.906250 0.262500
0.091667 0.905208 0.320833
0.095833 0.904167 0.379167
0.100000 0.903125 0.437500
0.104167 0.902083 0.495833
0.108333 0.901042 0.554167
0.112500 0.900000 0.612500
0.116667 0.898958 0.670833
0.120833 0.897917 0.729167
0.125000 0.896875 0.787500
0.129167 0.895833 0.845833
0.133333 0.894792 0.904167
0.137500 0.893750 0.962500
0.141667 0.892708 1.000000
0.079167 0.970833 0.083333
0.083333 0.969792 0.141667
0.087500 0.968750 0.200000
0.091667 0.967708 0.258333
0.095833 0.966667 0.316667
0.100000 0.965625 0.375000
0.104167 0.964583 0.433333
0.108333 0.963542 0.491667
0.112500 0.962500 0.550000
0.116667 0.961458 0.608333
0.120833 0.960417 0.666667
0.125000 0.959375 0.725000
0.129167 0.958333 0.783333
0.133333 0.957292 0.841667
0.137500 0.956250 0.900000
0.141667 0.955208 0.958333
0.145833 0.954167 1.000000
0.083333 1.000000 0.079167
0.087500 1.000000 0.137500
0.091667 1.000000 0.195833
0.095833 1.000000 0.254167
0.100000 1.000000 0.312500
0.104167 1.000000 0.370833
0.108333 1.000000 0.429167
0.112500 1.000000 0.487500
0.116667 1.000000 0.545833
0.120833 1.000000 0.604167
0.125000 1.000000 0.662500
0.129167 1.000000 0.720833
0.133333 1.000000 0.779167
0.137500 1.000000 0.837500
0.141667 1.000000 0.895833
0.145833 1.000000 0.954167
0.150000 1.000000 1.000000
0.083333 0.047917 0.141667
0.087500 0.046875 0.200000
0.091667 0.045833 0.258333
0.095833 0.044792 0.316667
0.100000 0.043750 0.375000
0.104167 0.042708 0.433333
0.108333 0.041667 0.491667
0.112500 0.040625 0.550000
0.116667 0.039583 0.608333
0.120833 0.038542 0.666667
0.125000 0.037500 0.725000
0.129167 0.036458 0.783333
0.133333 0.035417 0.841667
0.137500 0.034375 0.900000
0.141667 0.033333 0.958333
0.145833 0.032292 1.000000
0.150000 0.031250 1.000000
0.087500 0.109375 0.137500
0.091667 0.108333 0.195833
0.095833 0.107292 0.254167
0.100000 0.106250 0.312500
0.104167 0.105208 0.370833
0.108333 0.104167 0.429167
0.112500 0.103125 0.487500
0.116667 0.102083 0.545833
0.120833 0.101042 0.604167
0.125000 0.100000 0.662500
0.129167 0.098958 0.720833
0.133333 0.097917 0.779167
0.137500 0.096875 0.837500
0.141667 0.095833 0.895833
0.145833 0.094792 0.954167
0.150000 0.093750 1.000000
0.154167 0.092708 1.000000
0.091667 0.170833 0.133333
0.095833 0.169792 0.191667
0.100000 0.168750 0.250000
0.104167 0.167708 0.308333
0.108333 0.166667 0.366667
0.112500 0.165625 0.425000
0.116667 0.164583 0.483333
0.120833 0.163542 0.541667
0.125000 0.162500 0.600000
0.129167 0.161458 0.658333
0.133333 0.160417 0.716667
0.137500 0.159375 0.775000
0.141667 0.158333 0.833333
0.145833 0.157292 0.891667
0.150000 0.156250 0.950000
0.154167 0.155208 1.000000
0.158333 0.154167 1.000000
0.095833 0.232292 0.129167
0.100000 0.231250 0.187500
0.104167 0.230208 0.245833
0.108333 0.229167 0.304167
0.112500 0.228125 0.362500
0.116667 0.227083 0.420833
0.120833 0.226042 0.479167
0.125000 0.225000 0.537500
0.129167 0.223958 0.595833
0.133333 0.222917 0.654167
0.137500 0.221875 0.712500
0.141667 0.220833 0.770833
0.145833 0.219792 0.829167
0.150000 0.218750 0.887500
0.154167 0.217708 0.945833
0.158333 0.216667 1.000000
0.162500 0.215625 1.000000
0.100000 0.293750 0.125000
0.104167 0.292708 0.183333
0.108333 0.291667 0.241667
0.112500 0.290625 0.300000
0.116667 0.289583 0.358333
0.120833 0.288542 0.416667
0.125000 0.287500 0.475000
0.129167 0.286458 0.533333
0.133333 0.285417 0.591667
0.137500 0.284375 0.650000
0.141667 0.283333 0.708333
0.145833 0.282292 0.766667
0.150000 0.281250 0.825000
0.154167 0.280208 0.883333
0.158333 0.279167 0.941667
0.162500 0.278125 1.000000
0.166667 0.277083 1.000000
0.104167 0.355208 0.120833
0.108333 0.354167 0.179167
0.112500 0.353125 0.237500
0.116667 0.352083 0.295833
0.120833 0.351042 0.354167
0.125000 0.350000 0.412500
0.129167 0.348958 0.470833
0.133333 0.347917 0.529167
0.137500 0.346875 0.587500
0.141667 0.345833 0.645833
0.145833 0.344792 0.704167
0.150000 0.343750 0.762500
0.154167 0.342708 0.820833
0.158333 0.341667 0.879167
0.162500 0.340625 0.937500
0.166667 0.339583 0.995833
0.170833 0.338542 1.000000
0.108333 0.416667 0.116667
0.112500 0.415625 0.175000
0.116667 0.414583 0.233333
0.120833 0.413542 0.291667
0.125000 0.412500 0.350000
0.129167 0.411458 0.408333
0.133333 0.410417 0.466667
0.137500 0.409375 0.525000
0.141667 0.408333 0.583333
0.145833 0.407292 0.641667
0.150000 0.406250 0.700000
0.154167 0.405208 0.758333
0.158333 0.404167 0.816667
0.162500 0.403125 0.875000
0.166667 0.402083 0.933333
0.170833 0.401042 0.991667
0.175000 0.400000 1.000000
0.112500 0.478125 0.112500
0.116667 0.477083 0.170833
0.120833 0.476042 0.229167
0.125000 0.475000 0.287500
0.129167 0.473958 0.345833
0.133333 0.472917 0.404167
0.137500 0.471875 0.462500
0.141667 0.470833 0.520833
0.145833 0.469792 0.579167
0.150000 0.468750 0.637500
0.154167 0.467708 0.695833
0.158333 0.466667 0.754167
0.162500 0.465625 0.812500
0.166667 0.464583 0.870833
0.170833 0.463542 0.929167
0.175000 0.462500 0.987500
0.179167 0.461458 1.000000
0.116667 0.539583 0.108333
0.120833 0.538542 0.166667
0.125000 0.537500 0.225000
0.129167 0.536458 0.283333
0.133333 0.535417 0.341667
0.137500 0.534375 0.400000
0.141667 0.533333 0.458333
0.145833 0.532292 0.516667
0.150000 0.531250 0.575000
0.154167 0.530208 0.633333
0.158333 0.529167 0.691667
0.162500 0.528125 0.750000
0.166667 0.527083 0.808333
0.170833 0.526042 0.866667
0.175000 0.525000 0.925000
0.179167 0.523958 0.983333
0.183333 0.522917 1.000000
0.120833 0.601042 0.104167
0.125000 0.600000 0.162500
0.129167 0.598958 0.220833
0.133333 0.597917 0.279167
0.137500 0.596875 0.337500
0.141667 0.595833 0.395833
0.145833 0.594792 0.454167
0.150000 0.593750 0.512500
0.154167 0.592708 0.570833
0.158333 0.591667 0.629167
0.162500 0.590625 0.687500
0.166667 0.589583 0.745833
0.170833 0.588542 0.804167
0.175000 0.587500 0.862500
0.179167 0.586458 0.920833
0.183333 0.585417 0.979167
0.187500 0.584375 1.000000
0.125000 0.662500 0.100000
0.129167 0.661458 0.158333
0.133333 0.660417 0.216667
0.137500 0.659375 0.275000
0.141667 0.658333 0.333333
0.145833 0.657292 0.391667
0.150000 0.656250 0.450000
0.154167 0.655208 0.508333
0.158333 0.654167 0.566667
0.162500 0.653125 0.625000
0.166667 0.652083 0.683333
0.170833 0.651042 0.741667
0.175000 0.650000 0.800000
0.179167 0.648958 0.858333
0.183333 0.647917 0.916667
0.187500 0.646875 0.975000
0.191667 0.645833 1.000000
0.129167 0.723958 0.095833
0.133333 0.722917 0.154167
0.137500 0.721875 0.212500
0.141667 0.720833 0.270833
0.145833 0.719792 0.329167
0.150000 0.718750 0.387500
0.154167 0.717708 0.445833
0.158333 0.716667 0.504167
0.162500 0.715625 0.562500
0.166667 0.714583 0.620833
0.170833 0.713542 0.679167
0.175000 0.712500 0.737500
0.179167 0.711458 0.795833
0.183333 0.710417 0.854167
0.187500 0.709375 0.912500
0.191667 0.708333 0.970833
0.195833 0.707292 1.000000
0.133333 0.785417 0.091667
0.137500 0.784375 0.150000
0.141667 0.783333 0.208333
0.145833 0.782292 0.266667
0.150000 0.781250 0.325000
0.154167 0.780208 0.383333
0.158333 0.779167 0.441667
0.162500 0.778125 0.500000
0.166667 0.777083 0.558333
0.170833 0.776042 0.616667
0.175000 0.775000 0.675000
0.179167 0.773958 0.733333
0.183333 0.772917 0.791667
0.187500 0.771875 0.850000
0.191667 0.770833 0.908333
0.195833 0.769792 0.966667
0.200000 0.768750 1.000000
0.137500 0.846875 0.087500
0.141667 0.845833 0.145833
0.145833 0.844792 0.204167
0.150000 0.843750 0.262500
0.154167 0.842708 0.320833
0.158333 0.841667 0.379167
0.162500 0.840625 0.437500
0.166667 0.839583 0.495833
0.170833 0.838542 0.554167
0.175000 0.837500 0.612500
0.179167 0.836458 0.670833
0.183333 0.835417 0.729167
0.187500 0.834375 0.787500
0.191667 0.833333 0.845833
0.195833 0.832292 0.904167
0.200000 0.831250 0.962500
0.204167 0.830208 1.000000
0.141667 0.908333 0.083333
0.145833 0.907292 0.141667
0.150000 0.906250 0.200000
0.154167 0.905208 0.258333
0.158333 0.904167 0.316667
0.162500 0.903125 0.375000
0.166667 0.902083 0.433333
0.170833 0.901042 0.491667
0.175000 0.900000 0.550000
0.179167 0.898958 0.608333
0.183333 0.897917 0.666667
0.187500 0.896875 0.725000
0.191667 0.895833 0.783333
0.195833 0.894792 0.841667
0.200000 0.893750 0.900000
0.204167 0.892708 0.958333
0.208333 0.891667 1.000000
0.145833 0.969792 0.079167
0.150000 0.968750 0.137500
0.154167 0.967708 0.195833
0.158333 0.966667 0.254167
0.162500 0.965625 0.312500
0.166667 0.964583 0.370833
0.170833 0.963542 0.429167
0.175000 0.962500 0.487500
0.179167 0.961458 0.545833
0.183333 0.960417 0.604167
0.187500 0.959375 0.662500
0.191667 0.958333 0.720833
0.195833 0.957292 0.779167
0.200000 0.956250 0.837500
0.204167 0.955208 0.895833
0.208333 0.954167 0.954167
0.212500 0.953125 1.000000
0.150000 1.000000 0.075000
0.154167 1.000000 0.133333
0.158333 1.000000 0.191667
0.162500 1.000000 0.250000
0.166667 1.000000 0.308333
0.170833 1.000000 0.366667
0.175000 1.000000 0.425000
0.179167 1.000000 0.483333
0.183333 1.000000 0.541667
0.187500 1.000000 0.600000
0.191667 1.000000 0.658333
0.195833 1.000000 0.716667
0.200000 1.000000 0.775000
0.204167 1.000000 0.833333
0.208333 1.000000 0.891667
0.212500 1.000000 0.950000
0.216667 1.000000 1.000000
0.150000 0.046875 0.137500
0.154167 0.045833 0.195833
0.158333 0.044792 0.254167
0.162500 0.043750 0.312500
0.166667 0.042708 0.370833
0.170833 0.041667 0.429167
0.175000 0.040625 0.487500
0.179167 0.039583 0.545833
0.183333 0.038542 0.604167
0.187500 0.037500 0.662500
0.191667 0.036458 0.720833
0.195833 0.035417 0.779167
0.200000 0.034375 0.837500
0.204167 0.033333 0.895833
0.208333 0.032292 0.954167
0.212500 0.031250 1.000000
0.216667 0.030208 1.000000
0.154167 0.108333 0.133333
