examples/cinematic.cube
# Simple Teal-Orange LUT (generated)
LUT_3D_SIZE 5
DOMAIN_MIN 0.0 0.0 0.0
DOMAIN_MAX 1.0 1.0 1.0
0.000000 0.050000 0.150000
0.000000 0.045833 0.383333
0.000000 0.041667 0.616667
0.000000 0.037500 0.850000
0.016667 0.033333 1.000000
0.000000 0.295833 0.133333
0.000000 0.291667 0.366667
0.000000 0.287500 0.600000
0.016667 0.283333 0.833333
0.033333 0.279167 1.000000
0.000000 0.541667 0.116667
0.000000 0.537500 0.350000
0.016667 0.533333 0.583333
0.033333 0.529167 0.816667
0.050000 0.525000 1.000000
0.000000 0.787500 0.100000
0.016667 0.783333 0.333333
0.033333 0.779167 0.566667
0.050000 0.775000 0.800000
0.066667 0.770833 1.000000
0.016667 1.000000 0.083333
0.033333 1.000000 0.316667
0.050000 1.000000 0.550000
0.066667 1.000000 0.783333
0.083333 1.000000 1.000000
0.216667 0.045833 0.133333
0.233333 0.041667 0.366667
0.250000 0.037500 0.600000
0.266667 0.033333 0.833333
0.283333 0.029167 1.000000
0.233333 0.291667 0.116667
0.250000 0.287500 0.350000
0.266667 0.283333 0.583333
0.283333 0.279167 0.816667
0.300000 0.275000 1.000000
0.250000 0.537500 0.100000
0.266667 0.533333 0.333333
0.283333 0.529167 0.566667
0.300000 0.525000 0.800000
0.316667 0.520833 1.000000
0.266667 0.783333 0.083333
0.283333 0.779167 0.316667
0.300000 0.775000 0.550000
0.316667 0.770833 0.783333
0.333333 0.766667 1.000000
0.283333 1.000000 0.066667
0.300000 1.000000 0.300000
0.316667 1.000000 0.533333
0.333333 1.000000 0.766667
0.350000 1.000000 1.000000
0.483333 0.041667 0.116667
0.500000 0.037500 0.350000
0.516667 0.033333 0.583333
0.533333 0.029167 0.816667
0.550000 0.025000 1.000000
0.500000 0.287500 0.100000
0.516667 0.283333 0.333333
0.533333 0.279167 0.566667
0.550000 0.275000 0.800000
0.566667 0.270833 1.000000
0.516667 0.533333 0.083333
0.533333 0.529167 0.316667
0.550000 0.525000 0.550000
0.566667 0.520833 0.783333
0.583333 0.516667 1.000000
0.533333 0.779167 0.066667
0.550000 0.775000 0.300000
0.566667 0.770833 0.533333
0.583333 0.766667 0.766667
0.600000 0.762500 1.000000
0.550000 1.000000 0.050000
0.566667 1.000000 0.283333
0.583333 1.000000 0.516667
0.600000 1.000000 0.750000
0.616667 1.000000 0.983333
0.750000 0.037500 0.100000
0.766667 0.033333 0.333333
0.783333 0.029167 0.566667
0.800000 0.025000 0.800000
0.816667 0.020833 1.000000
0.766667 0.283333 0.083333
0.783333 0.279167 0.316667
0.800000 0.275000 0.550000
0.816667 0.270833 0.783333
0.833333 0.266667 1.000000
0.783333 0.529167 0.066667
0.800000 0.525000 0.300000
0.816667 0.520833 0.533333
0.833333 0.516667 0.766667
0.850000 0.512500 1.000000
0.800000 0.775000 0.050000
0.816667 0.770833 0.283333
0.833333 0.766667 0.516667
0.850000 0.762500 0.750000
0.866667 0.758333 0.983333
0.816667 1.000000 0.033333
0.833333 1.000000 0.266667
0.850000 1.000000 0.500000
0.866667 1.000000 0.733333
0.883333 1.000000 0.966667
1.000000 0.033333 0.083333
1.000000 0.029167 0.316667
1.000000 0.025000 0.550000
1.000000 0.020833 0.783333
1.000000 0.016667 1.000000
1.000000 0.279167 0.066667
1.000000 0.275000 0.300000
1.000000 0.270833 0.533333
1.000000 0.266667 0.766667
1.000000 0.262500 1.000000
1.000000 0.525000 0.050000
1.000000 0.520833 0.283333
1.000000 0.516667 0.516667
1.000000 0.512500 0.750000
1.000000 0.508333 0.983333
1.000000 0.770833 0.033333
1.000000 0.766667 0.266667
1.000000 0.762500 0.500000
1.000000 0.758333 0.733333
1.000000 0.754167 0.966667
1.000000 1.000000 0.016667
1.000000 1.000000 0.250000
1.000000 1.000000 0.483333
1.000000 1.000000 0.716667
1.000000 1.000000 0.950000
