examples/fuji_fp-100c_alt.cube
# Created by: G'MIC (https://gmic.eu)
TITLE "fuji_fp-100c_alt"
# LUT size
LUT_3D_SIZE 13
# Data domain
DOMAIN_MIN 0.0 0.0 0.0
DOMAIN_MAX 1.0 1.0 1.0
# LUT data points
0.028647718951106071 0.021363666281104088 0.025473112240433693
0.054168596863746643 0.016063705086708069 0.018522061407566071
0.091470621526241302 0.0098495632410049438 0.012818175368010998
0.13161610066890717 0.0069322176277637482 0.0091443527489900589
0.17489100992679596 0.0071266475133597851 0.008481612429022789
0.22884683310985565 0.0071466634981334209 0.0083618462085723877
0.30340886116027832 0.0024036781396716833 0.0064536896534264088
0.39638480544090271 9.2091278929729015e-05 0.0026322158519178629
0.49559015035629272 0.00042790430597960949 0.00028405283228494227
0.59175390005111694 0.0011942096753045917 0
0.67742919921875 0.00055541994515806437 0
0.75398492813110352 0 0
0.82334518432617188 0 0
0.056393388658761978 0.073430754244327545 0.038117546588182449
0.075630322098731995 0.067685835063457489 0.031855326145887375
0.11207620799541473 0.058521032333374023 0.025711838155984879
0.15386131405830383 0.051277775317430496 0.019124304875731468
0.19826595485210419 0.046322677284479141 0.014913775958120823
0.25538986921310425 0.036338716745376587 0.012678886763751507
0.32977166771888733 0.021422876045107841 0.0081590088084340096
0.41968521475791931 0.013593142852187157 0.0026802511420100927
0.51635611057281494 0.011926000006496906 9.1911766503471881e-05
0.60896974802017212 0.0096548190340399742 0
0.69265192747116089 0.0047758365981280804 0
0.76656478643417358 0.00061065074987709522 0
0.83356231451034546 0 0
0.092620834708213806 0.1304226815700531 0.055676508694887161
0.10652121901512146 0.12637114524841309 0.051499940454959869
0.13743144273757935 0.1206413134932518 0.046516001224517822
0.17703241109848022 0.11366487294435501 0.036802120506763458
0.22536642849445343 0.10454531013965607 0.028249926865100861
0.28730851411819458 0.089138686656951904 0.022477736696600914
0.3630649745464325 0.069599241018295288 0.01417255774140358
0.45038437843322754 0.055381521582603455 0.0045820646919310093
0.54210937023162842 0.045419283211231232 0.00016114478057716042
0.63018625974655151 0.034154195338487625 0
0.70991647243499756 0.02145722322165966 0
0.78036147356033325 0.0091492002829909325 0
0.84420084953308105 0.0026457393541932106 0
0.12057247012853622 0.19806355237960815 0.078204259276390076
0.13379532098770142 0.19527208805084229 0.07538343220949173
0.16230368614196777 0.19153334200382233 0.070767410099506378
0.20338425040245056 0.18580207228660583 0.061073392629623413
0.25646576285362244 0.17720262706279755 0.050179366022348404
0.3226693868637085 0.16285714507102966 0.040288064628839493
0.40060234069824219 0.14373314380645752 0.027067985385656357
0.48678818345069885 0.12445195764303207 0.011589005589485168
0.57445138692855835 0.10530374199151993 0.0012705036206170917
0.65828162431716919 0.084361463785171509 0
0.73254221677780151 0.0627569779753685 0
0.79845702648162842 0.041231490671634674 0
0.85828566551208496 0.027104621753096581 0
0.1321815699338913 0.28344175219535828 0.10415557026863098
0.15171466767787933 0.28080958127975464 0.10098391026258469
0.18506135046482086 0.27695408463478088 0.096453845500946045
0.23243030905723572 0.27034905552864075 0.088482365012168884
0.29168468713760376 0.26373410224914551 0.077194571495056152
0.3623870313167572 0.25323396921157837 0.063662707805633545
0.44196170568466187 0.23683652281761169 0.046338863670825958
0.52723145484924316 0.21642711758613586 0.026352018117904663
0.61260473728179932 0.19160151481628418 0.0084975594654679298
0.69144177436828613 0.16584073007106781 0.0010062124347314239
0.76116245985031128 0.13893754780292511 5.1700368203455582e-05
0.82149481773376465 0.10839947313070297 0
0.87662392854690552 0.084344394505023956 0.00010657216625986621
0.15169808268547058 0.38857802748680115 0.12705527245998383
0.17476356029510498 0.38703018426895142 0.12408646196126938
0.21398964524269104 0.38177546858787537 0.1198933944106102
0.26775163412094116 0.3737061619758606 0.11256568878889084
0.33251270651817322 0.3682408332824707 0.10173184424638748
0.4059692919254303 0.36122751235961914 0.087728150188922882
0.48667627573013306 0.34871211647987366 0.069206207990646362
0.57076257467269897 0.32911202311515808 0.04749634861946106
0.65285325050354004 0.30458343029022217 0.026986559852957726
0.72868818044662476 0.28009620308876038 0.012823321856558323
0.79414981603622437 0.25448465347290039 0.0063428091816604137
0.85027962923049927 0.2207779586315155 0.0051229889504611492
0.90105503797531128 0.18962468206882477 0.0073435017839074135
0.19689169526100159 0.50616157054901123 0.14018714427947998
0.21841923892498016 0.50512230396270752 0.13854657113552094
0.25900673866271973 0.49860018491744995 0.13429774343967438
0.31614243984222412 0.48908942937850952 0.12651027739048004
0.38324823975563049 0.48303210735321045 0.11682459712028503
0.45686483383178711 0.47883486747741699 0.10504236817359924
0.53587430715560913 0.46869218349456787 0.088495619595050812
0.61669141054153442 0.4523867666721344 0.06817067414522171
0.69459342956542969 0.433481365442276 0.050292428582906723
0.76520395278930664 0.41451254487037659 0.036240238696336746
0.82756888866424561 0.39477291703224182 0.027369584888219833
0.88128852844238281 0.36686241626739502 0.023709660395979881
0.9291762113571167 0.33511874079704285 0.024635555222630501
0.27034643292427063 0.61430668830871582 0.13892456889152527
0.2906501293182373 0.61283242702484131 0.13699327409267426
0.32943353056907654 0.60519802570343018 0.13256725668907166
0.38443195819854736 0.59510606527328491 0.12497913092374802
0.44825705885887146 0.58887386322021484 0.11678194254636765
0.51754879951477051 0.58496099710464478 0.10720905661582947
0.59036064147949219 0.57745087146759033 0.094748161733150482
0.66495352983474731 0.56669372320175171 0.081217087805271149
0.73567533493041992 0.55467259883880615 0.069279678165912628
0.79965764284133911 0.54099106788635254 0.05887768417596817
0.85698908567428589 0.52630668878555298 0.051272343844175339
0.90714508295059204 0.50614351034164429 0.047813925892114639
0.95313113927841187 0.47935241460800171 0.047974947839975357
0.37111803889274597 0.69587087631225586 0.11938665062189102
0.39083299040794373 0.69386988878250122 0.11611697822809219
0.42496961355209351 0.68694597482681274 0.11149803549051285
0.47183096408843994 0.67881017923355103 0.10553655028343201
0.52678221464157104 0.6734277606010437 0.099729321897029877
0.58675378561019897 0.66920632123947144 0.093475088477134705
0.65086489915847778 0.66346263885498047 0.086296290159225464
0.71505379676818848 0.65688014030456543 0.080599360167980194
0.77551305294036865 0.65006673336029053 0.077126927673816681
0.83152675628662109 0.64081788063049316 0.072895675897598267
0.88236409425735474 0.63020813465118408 0.06870625913143158
0.92908048629760742 0.6164441704750061 0.066198341548442841
0.9736132025718689 0.59626364707946777 0.065434247255325317
0.49003082513809204 0.75232702493667603 0.086623005568981171
0.50687152147293091 0.75185090303421021 0.081550359725952148
0.53423559665679932 0.74713468551635742 0.075771048665046692
0.57059341669082642 0.74143785238265991 0.070423886179924011
0.61384356021881104 0.73732733726501465 0.06743215024471283
0.66235572099685669 0.73323714733123779 0.065259955823421478
0.7142607569694519 0.72829514741897583 0.06518930196762085
0.76640766859054565 0.72325915098190308 0.068084314465522766
0.81633049249649048 0.71888482570648193 0.072825275361537933
0.86322551965713501 0.71377772092819214 0.074043720960617065
0.90792757272720337 0.70646631717681885 0.070655867457389832
0.9513135552406311 0.69602024555206299 0.066261038184165955
0.9912375807762146 0.6800992488861084 0.06287047266960144
0.61329364776611328 0.79545724391937256 0.052260067313909531
0.62695556879043579 0.79599398374557495 0.04120635986328125
0.64658600091934204 0.7934691309928894 0.030208691954612732
0.67244118452072144 0.79016017913818359 0.022805411368608475
0.70463746786117554 0.78695130348205566 0.020991411060094833
0.74089890718460083 0.7832065224647522 0.023560617119073868
0.77996671199798584 0.77880734205245972 0.031393222510814667
0.81967240571975708 0.77455151081085205 0.044812429696321487
0.85861665010452271 0.77136117219924927 0.057459410279989243
0.89749372005462646 0.76800990104675293 0.059677571058273315
0.93686133623123169 0.76297938823699951 0.052088569849729538
0.97704529762268066 0.75476646423339844 0.04346611350774765
0.99944806098937988 0.74330627918243408 0.037863068282604218
0.73206537961959839 0.83288383483886719 0.021350979804992676
0.74245041608810425 0.83344757556915283 0.00521876011043787
0.75544387102127075 0.83248603343963623 0.00034770590718835592
0.77318543195724487 0.83115780353546143 0
0.79472613334655762 0.82831203937530518 0
0.82004565000534058 0.8252863883972168 0
0.84763377904891968 0.82160389423370361 0.0011897367658093572
0.87607413530349731 0.81778943538665771 0.0097733745351433754
0.9051859974861145 0.81483602523803711 0.02615305595099926
0.93706792593002319 0.81272965669631958 0.025968648493289948
0.97185319662094116 0.80964481830596924 0.013718219473958015
0.9972527027130127 0.80446124076843262 0.0060233622789382935
1 0.79700380563735962 0.0038545047864317894
0.84214115142822266 0.87053757905960083 0.001082252012565732
0.84984737634658813 0.87080550193786621 0
0.85811585187911987 0.87011730670928955 0
0.86873215436935425 0.86775428056716919 0
0.88246649503707886 0.86681216955184937 0
0.89932394027709961 0.86372768878936768 0
0.91787773370742798 0.86117875576019287 0
0.93727982044219971 0.8582003116607666 0
0.95861554145812988 0.85558360815048218 0.00024037080584093928
0.98279726505279541 0.85455584526062012 0.00012368595344014466
0.99827063083648682 0.85341465473175049 0
1 0.85098451375961304 0
1 0.84670692682266235 0
0.025606296956539154 0.026624178513884544 0.06485334038734436
0.054115474224090576 0.020423410460352898 0.057450521737337112
0.09131062775850296 0.013699655421078205 0.050928480923175812
0.13119332492351532 0.0093589331954717636 0.044848933815956116
0.17611974477767944 0.0076744081452488899 0.040071941912174225
0.23313555121421814 0.0059430589899420738 0.034537669271230698
0.30769509077072144 0.0027301863301545382 0.02616526372730732
0.3980286717414856 0.00077136169420555234 0.01538269966840744
0.49622032046318054 0.00030356014030985534 0.0056045530363917351
0.58990532159805298 6.283030870690709e-06 0.00034371169749647379
0.67515623569488525 0 0
0.75098633766174316 0 0
0.8191838264465332 0 0
0.053599398583173752 0.078455366194248199 0.077680192887783051
0.075909420847892761 0.072296604514122009 0.071251891553401947
0.11182351410388947 0.063818387687206268 0.065024584531784058
0.15283390879631042 0.055846255272626877 0.057521730661392212
0.19948069751262665 0.049388676881790161 0.050147529691457748
0.25798669457435608 0.039661586284637451 0.042581953108310699
0.3325120210647583 0.026940798386931419 0.0320102758705616
0.42134895920753479 0.017868475988507271 0.019075656309723854
0.51658231019973755 0.01245066337287426 0.0067998250015079975
0.60807234048843384 0.0069559882394969463 0.00047765992349013686
0.69041860103607178 0.0014755846932530403 0
0.76343083381652832 0 0
0.8289794921875 0 0
0.086473189294338226 0.13570468127727509 0.094504714012145996
0.10406256467103958 0.13088557124137878 0.090024970471858978
0.13577999174594879 0.12504592537879944 0.085314236581325531
0.17707677185535431 0.11793434619903564 0.076416805386543274
0.2266886830329895 0.10918160527944565 0.066059529781341553
0.28884619474411011 0.094876609742641449 0.055384304374456406
0.36434146761894226 0.075939834117889404 0.041556652635335922
0.45113873481750488 0.060095183551311493 0.025220355018973351
0.54252666234970093 0.046687692403793335 0.010206050239503384
0.63013333082199097 0.03246205672621727 0.0016603207914158702
0.70832908153533936 0.017515817657113075 1.6455556760774925e-05
0.77742338180541992 0.0058534359559416771 0
0.83989012241363525 0.0013330347137525678 0
0.11385533958673477 0.20392002165317535 0.11542817950248718
0.12983350455760956 0.19937810301780701 0.11169330030679703
0.1601216197013855 0.19577346742153168 0.10749076306819916
0.20268197357654572 0.19031901657581329 0.09885367751121521
0.25703179836273193 0.18231081962585449 0.087042562663555145
0.32346934080123901 0.16820520162582397 0.07352738082408905
0.40117707848548889 0.14821609854698181 0.055577728897333145
0.48704284429550171 0.12919357419013977 0.035452239215373993
0.5751228928565979 0.10819220542907715 0.017705446109175682
0.65830081701278687 0.085001550614833832 0.0059925750829279423
0.73189753293991089 0.061641931533813477 0.0011373333400115371
0.79603314399719238 0.04027494415640831 0.00011831545270979404
0.85471457242965698 0.02711830846965313 9.4784008979331702e-05
0.13021180033683777 0.28977230191230774 0.13861560821533203
0.14899054169654846 0.28482756018638611 0.13422536849975586
0.18276619911193848 0.28085106611251831 0.12991590797901154
0.23099781572818756 0.27569723129272461 0.12242545187473297
0.2907443642616272 0.26797118782997131 0.11093641072511673
0.36220791935920715 0.25506260991096497 0.095399118959903717
0.4421226978302002 0.2389652281999588 0.075324021279811859
0.52765870094299316 0.22071540355682373 0.052747104316949844
0.61301660537719727 0.19687940180301666 0.032866310328245163
0.69142776727676392 0.16950309276580811 0.018082577735185623
0.76076698303222656 0.1407642662525177 0.0091670164838433266
0.82075124979019165 0.11153364181518555 0.005333365872502327
0.87493175268173218 0.090567991137504578 0.0058698318898677826
0.15200108289718628 0.39576497673988342 0.15988191962242126
0.17370738089084625 0.39072695374488831 0.1556585282087326
0.21231305599212646 0.38547715544700623 0.15110369026660919
0.26531484723091125 0.37959891557693481 0.14420004189014435
0.33096623420715332 0.37215811014175415 0.13338309526443481
0.4050801694393158 0.36170780658721924 0.11742653697729111
0.48669144511222839 0.34872573614120483 0.097712434828281403
0.57118207216262817 0.33258318901062012 0.075389713048934937
0.65305888652801514 0.31087532639503479 0.05470193549990654
0.72852039337158203 0.28573900461196899 0.03892497718334198
0.79358798265457153 0.25764518976211548 0.028265815228223801
0.84989756345748901 0.22587737441062927 0.022984104230999947
0.90070796012878418 0.19893977046012878 0.023453626781702042
0.19594070315361023 0.51225125789642334 0.17310792207717896
0.21834102272987366 0.50820434093475342 0.16972857713699341
0.25866663455963135 0.50150823593139648 0.16528293490409851
0.31475311517715454 0.4939720630645752 0.15824905037879944
0.38206177949905396 0.48771607875823975 0.14791576564311981
0.4559626579284668 0.48070269823074341 0.13386519253253937
0.53610044717788696 0.47034159302711487 0.11590432375669479
0.6169317364692688 0.45642036199569702 0.096061468124389648
0.69487595558166504 0.43952181935310364 0.078098863363265991
0.76481068134307861 0.41993385553359985 0.063823491334915161
0.82641583681106567 0.39738190174102783 0.053577125072479248
0.88013261556625366 0.36998960375785828 0.046896573156118393
0.92867136001586914 0.34247022867202759 0.045740507543087006
0.26954829692840576 0.61911642551422119 0.17199504375457764
0.29117682576179504 0.61557561159133911 0.16899938881397247
0.33011320233345032 0.60803794860839844 0.16473089158535004
0.38394090533256531 0.60028469562530518 0.1580488383769989
0.44688853621482849 0.59509372711181641 0.14903080463409424
0.51707255840301514 0.59039610624313354 0.13701707124710083
0.59037661552429199 0.58194005489349365 0.12205661088228226
0.66498589515686035 0.57134610414505005 0.10688398778438568
0.7351754903793335 0.55999070405960083 0.095297597348690033
0.79871433973312378 0.54675579071044922 0.086602412164211273
0.85488379001617432 0.53026986122131348 0.080069869756698608
0.90524017810821533 0.50946760177612305 0.076058000326156616
0.95167034864425659 0.48432394862174988 0.075706139206886292
0.37090662121772766 0.70019137859344482 0.15197990834712982
0.39114260673522949 0.69789129495620728 0.14905701577663422
0.42535215616226196 0.6910780668258667 0.14513751864433289
0.47155341506004333 0.68453162908554077 0.13990524411201477
0.52584737539291382 0.68052142858505249 0.1336534321308136
0.58628684282302856 0.67648255825042725 0.12459326535463333
0.6506769061088562 0.66914385557174683 0.11283883452415466
0.71468096971511841 0.66121762990951538 0.10343886911869049
0.7750745415687561 0.65490645170211792 0.10120086371898651
0.82971799373626709 0.64717978239059448 0.10031371563673019
0.87953281402587891 0.63620531558990479 0.098839044570922852
0.92566609382629395 0.62119036912918091 0.098190769553184509
0.9701424241065979 0.6003187894821167 0.099271319806575775
0.49131768941879272 0.75651329755783081 0.11406248807907104
0.50828784704208374 0.75589847564697266 0.1115167960524559
0.53489792346954346 0.75127148628234863 0.10741939395666122
0.57100456953048706 0.7463374137878418 0.10338243842124939
0.61312460899353027 0.74357634782791138 0.10056038945913315
0.66169202327728271 0.7396312952041626 0.096148565411567688
0.71359330415725708 0.73319077491760254 0.089499548077583313
0.7658998966217041 0.72667837142944336 0.087021499872207642
0.81453186273574829 0.72347944974899292 0.093519128859043121
0.86007320880889893 0.71976590156555176 0.098836533725261688
0.9033355712890625 0.71284675598144531 0.099303290247917175
0.94551223516464233 0.70173788070678711 0.099481157958507538
0.986930251121521 0.68606096506118774 0.10094324499368668
0.61625415086746216 0.79872828722000122 0.069230727851390839
0.62890094518661499 0.79921138286590576 0.062451187521219254
0.64754682779312134 0.79710102081298828 0.054014947265386581
0.67259675264358521 0.7941277027130127 0.048585422337055206
0.70360308885574341 0.7916874885559082 0.048484534025192261
0.73956573009490967 0.78816276788711548 0.049093686044216156
0.77873426675796509 0.78294605016708374 0.050438106060028076
0.8179699182510376 0.77830171585083008 0.057970412075519562
0.85595345497131348 0.77591502666473389 0.070771567523479462
0.89264971017837524 0.77347695827484131 0.076714672148227692
0.92988204956054688 0.76854360103607178 0.073862947523593903
0.96857839822769165 0.76030862331390381 0.07155793160200119
0.99786555767059326 0.74959903955459595 0.073425248265266418
0.73456043004989624 0.83615207672119141 0.024034507572650909
0.74452978372573853 0.8363109827041626 0.010891947895288467
0.75652515888214111 0.83542758226394653 0.0041833017021417618
0.77309185266494751 0.83344131708145142 0.0020507064182311296
0.79346948862075806 0.83160430192947388 0.002366039901971817
0.81841474771499634 0.82857590913772583 0.0031229804735630751
0.84616702795028687 0.82485115528106689 0.0046790027990937233
0.87409895658493042 0.82160300016403198 0.011790839955210686
0.90162557363510132 0.81932896375656128 0.024673836305737495
0.93062448501586914 0.81759738922119141 0.028855940327048302
0.96259874105453491 0.81446641683578491 0.02167479507625103
0.992931067943573 0.80941653251647949 0.017466660588979721
1 0.80306762456893921 0.021276570856571198
0.8436591625213623 0.87227082252502441 8.8680491899140179e-05
0.85116952657699585 0.8716469407081604 0
0.85862272977828979 0.87108302116394043 0
0.86817806959152222 0.87011462450027466 0
0.88107484579086304 0.86805713176727295 0
0.89712470769882202 0.86633503437042236 0
0.9154965877532959 0.86352312564849854 0
0.93425577878952026 0.86125797033309937 0
0.953693687915802 0.85991024971008301 0
0.97597354650497437 0.85874515771865845 0
0.99499356746673584 0.85738909244537354 0
1 0.85522133111953735 0
1 0.85214143991470337 2.5670668037491851e-05
0.023914426565170288 0.033414579927921295 0.1114276796579361
0.053140245378017426 0.027198057621717453 0.10423314571380615
0.089082352817058563 0.019855918362736702 0.097459651529788971
0.12951427698135376 0.013898049481213093 0.089898146688938141
0.17771700024604797 0.0094494540244340897 0.081342898309230804
0.23819750547409058 0.0061734667979180813 0.070356659591197968
0.31375962495803833 0.0033171710092574358 0.055470723658800125
0.40260902047157288 0.0019994399044662714 0.037266120314598083
0.49735257029533386 0.0008830051519908011 0.020241577178239822
0.58962690830230713 0 0.0082025863230228424
0.67356222867965698 0 0.001905538490973413
0.74779683351516724 0 0.0001811607216950506
0.81459224224090576 0 2.5281718990299851e-05
0.053129099309444427 0.085196368396282196 0.1243547797203064
0.077050559222698212 0.078876003623008728 0.11830513179302216
0.11102235317230225 0.070909403264522552 0.11227025091648102
0.15189677476882935 0.0621158666908741 0.10443704575300217
0.20102356374263763 0.053100496530532837 0.094664886593818665
0.26169213652610779 0.04264381155371666 0.082779228687286377
0.33672305941581726 0.031384650617837906 0.067223988473415375
0.42477700114250183 0.02233804389834404 0.04780038446187973
0.51812529563903809 0.014449071139097214 0.028861865401268005
0.60828268527984619 0.0057195923291146755 0.013787123374640942
0.68865454196929932 0.00047966450802050531 0.0036981620360165834
0.75962597131729126 0 0.00017009061411954463
0.82325935363769531 0 0
0.086847178637981415 0.14213237166404724 0.14072614908218384
0.10460767894983292 0.13705207407474518 0.13630159199237823
0.134295254945755 0.1310732364654541 0.13149087131023407
0.17644812166690826 0.12299219518899918 0.12347518652677536
0.22781303524971008 0.11302503943443298 0.11249931156635284
0.29086363315582275 0.098863102495670319 0.099059067666530609
0.36646127700805664 0.081387057900428772 0.081843525171279907
0.45327404141426086 0.065196707844734192 0.061229225248098373
0.54410558938980103 0.049490462988615036 0.041263416409492493
0.63039624691009521 0.032320119440555573 0.024124190211296082
0.70708781480789185 0.01634490117430687 0.010268731042742729
0.77402210235595703 0.006113777868449688 0.0024001328274607658
0.83426928520202637 0.0024170968681573868 0.00075979792745783925
0.11479575932025909 0.21082654595375061 0.16051612794399261
0.13086922466754913 0.20572900772094727 0.15639506280422211
0.15995994210243225 0.20142051577568054 0.152338907122612
0.20283737778663635 0.19546765089035034 0.14485816657543182
0.25778278708457947 0.18619433045387268 0.13361069560050964
0.32499542832374573 0.17117398977279663 0.11849067360162735
0.40280598402023315 0.15277186036109924 0.099131368100643158
0.48854705691337585 0.13407371938228607 0.07685774564743042
0.57624250650405884 0.11215860396623611 0.056401137262582779
0.65853375196456909 0.087273046374320984 0.039064012467861176
0.73059970140457153 0.063495934009552002 0.024245528504252434
0.79341238737106323 0.043379466980695724 0.013770368881523609
0.85037696361541748 0.031809262931346893 0.010906802490353584
0.13250273466110229 0.29810789227485657 0.1828838586807251
0.15082976222038269 0.29133260250091553 0.17759248614311218
0.18335168063640594 0.28717067837715149 0.17354404926300049
0.23109465837478638 0.28231737017631531 0.16711990535259247
0.29081264138221741 0.27325046062469482 0.15615145862102509
0.36281362175941467 0.25903081893920898 0.14082431793212891
0.44278186559677124 0.24285759031772614 0.12080924957990646
0.52847695350646973 0.22565107047557831 0.098246268928050995
0.61341249942779541 0.20238795876502991 0.077470816671848297
0.69133585691452026 0.1747409999370575 0.0600128173828125
0.75953751802444458 0.14553612470626831 0.045391950756311417
0.81820762157440186 0.11721742153167725 0.035508204251527786
0.87158310413360596 0.097608394920825958 0.03364601731300354
0.15397201478481293 0.40433287620544434 0.20476295053958893
0.17545928061008453 0.39673572778701782 0.19900725781917572
0.21305829286575317 0.39176547527313232 0.19476766884326935
0.26529434323310852 0.38653713464736938 0.18860004842281342
0.33074676990509033 0.37826111912727356 0.17828913033008575
0.40501672029495239 0.36590868234634399 0.16322629153728485
0.48710548877716064 0.35270637273788452 0.14401340484619141
0.5716094970703125 0.33771628141403198 0.12311924993991852
0.65296441316604614 0.31737500429153442 0.10333213210105896
