examples/fuji_fp-100c_alt.cube
# Created by: G'MIC (https://gmic.eu)
TITLE "fuji_fp-100c_alt"
# LUT size
LUT_3D_SIZE 7
# Data domain
DOMAIN_MIN 0.0 0.0 0.0
DOMAIN_MAX 1.0 1.0 1.0
# LUT data points
0.028647718951106071 0.021363666281104088 0.025473112240433693
0.091470621526241302 0.0098495632410049438 0.012818175368010998
0.17489100992679596 0.0071266475133597851 0.008481612429022789
0.30340886116027832 0.0024036781396716833 0.0064536896534264088
0.49559015035629272 0.00042790430597960949 0.00028405283228494227
0.67742919921875 0.00055541994515806437 0
0.82334518432617188 0 0
0.092620834708213806 0.1304226815700531 0.055676508694887161
0.13743144273757935 0.1206413134932518 0.046516001224517822
0.22536642849445343 0.10454531013965607 0.028249926865100861
0.3630649745464325 0.069599241018295288 0.01417255774140358
0.54210937023162842 0.045419283211231232 0.00016114478057716042
0.70991647243499756 0.02145722322165966 0
0.84420084953308105 0.0026457393541932106 0
0.1321815699338913 0.28344175219535828 0.10415557026863098
0.18506135046482086 0.27695408463478088 0.096453845500946045
0.29168468713760376 0.26373410224914551 0.077194571495056152
0.44196170568466187 0.23683652281761169 0.046338863670825958
0.61260473728179932 0.19160151481628418 0.0084975594654679298
0.76116245985031128 0.13893754780292511 5.1700368203455582e-05
0.87662392854690552 0.084344394505023956 0.00010657216625986621
0.19689169526100159 0.50616157054901123 0.14018714427947998
0.25900673866271973 0.49860018491744995 0.13429774343967438
0.38324823975563049 0.48303210735321045 0.11682459712028503
0.53587430715560913 0.46869218349456787 0.088495619595050812
0.69459342956542969 0.433481365442276 0.050292428582906723
0.82756888866424561 0.39477291703224182 0.027369584888219833
0.9291762113571167 0.33511874079704285 0.024635555222630501
0.37111803889274597 0.69587087631225586 0.11938665062189102
0.42496961355209351 0.68694597482681274 0.11149803549051285
0.52678221464157104 0.6734277606010437 0.099729321897029877
0.65086489915847778 0.66346263885498047 0.086296290159225464
0.77551305294036865 0.65006673336029053 0.077126927673816681
0.88236409425735474 0.63020813465118408 0.06870625913143158
0.9736132025718689 0.59626364707946777 0.065434247255325317
0.61329364776611328 0.79545724391937256 0.052260067313909531
0.64658600091934204 0.7934691309928894 0.030208691954612732
0.70463746786117554 0.78695130348205566 0.020991411060094833
0.77996671199798584 0.77880734205245972 0.031393222510814667
0.85861665010452271 0.77136117219924927 0.057459410279989243
0.93686133623123169 0.76297938823699951 0.052088569849729538
0.99944806098937988 0.74330627918243408 0.037863068282604218
0.84214115142822266 0.87053757905960083 0.001082252012565732
0.85811585187911987 0.87011730670928955 0
0.88246649503707886 0.86681216955184937 0
0.91787773370742798 0.86117875576019287 0
0.95861554145812988 0.85558360815048218 0.00024037080584093928
0.99827063083648682 0.85341465473175049 0
1 0.84670692682266235 0
0.023914426565170288 0.033414579927921295 0.1114276796579361
0.089082352817058563 0.019855918362736702 0.097459651529788971
0.17771700024604797 0.0094494540244340897 0.081342898309230804
0.31375962495803833 0.0033171710092574358 0.055470723658800125
0.49735257029533386 0.0008830051519908011 0.020241577178239822
0.67356222867965698 0 0.001905538490973413
0.81459224224090576 0 2.5281718990299851e-05
0.086847178637981415 0.14213237166404724 0.14072614908218384
0.134295254945755 0.1310732364654541 0.13149087131023407
0.22781303524971008 0.11302503943443298 0.11249931156635284
0.36646127700805664 0.081387057900428772 0.081843525171279907
0.54410558938980103 0.049490462988615036 0.041263416409492493
0.70708781480789185 0.01634490117430687 0.010268731042742729
0.83426928520202637 0.0024170968681573868 0.00075979792745783925
0.13250273466110229 0.29810789227485657 0.1828838586807251
0.18335168063640594 0.28717067837715149 0.17354404926300049
0.29081264138221741 0.27325046062469482 0.15615145862102509
0.44278186559677124 0.24285759031772614 0.12080924957990646
0.61341249942779541 0.20238795876502991 0.077470816671848297
0.75953751802444458 0.14553612470626831 0.045391950756311417
0.87158310413360596 0.097608394920825958 0.03364601731300354
0.19661641120910645 0.51980400085449219 0.22079868614673615
0.25974109768867493 0.50692343711853027 0.21163097023963928
0.38178777694702148 0.49440249800682068 0.19506877660751343
0.53603166341781616 0.47495806217193604 0.16298705339431763
0.69368511438369751 0.4468863308429718 0.1274624764919281
0.82315927743911743 0.40218755602836609 0.10225734114646912
0.92417645454406738 0.3465307354927063 0.092839576303958893
0.36981043219566345 0.7051464319229126 0.21227361261844635
0.42479738593101501 0.69692659378051758 0.20459842681884766
0.52395188808441162 0.68938982486724854 0.19290255010128021
0.64882177114486694 0.67642331123352051 0.16753189265727997
0.77203643321990967 0.66152560710906982 0.1528080552816391
0.87517750263214111 0.64228332042694092 0.1535588800907135
0.96520519256591797 0.60580742359161377 0.15805722773075104
0.61452972888946533 0.80410170555114746 0.13191422820091248
0.6451956033706665 0.80296987295150757 0.11360545456409454
0.69927901029586792 0.79844671487808228 0.11361933499574661
0.77497702836990356 0.78942561149597168 0.10740181058645248
0.85105472803115845 0.78242707252502441 0.11990252882242203
0.92253285646438599 0.77496111392974854 0.12364474684000015
0.99482399225234985 0.75784659385681152 0.1343817263841629
0.84135937690734863 0.87653648853302002 0.0038510190788656473
0.85532164573669434 0.87437063455581665 8.4372128185350448e-05
0.87619078159332275 0.87225008010864258 0.00018310546875
0.91141259670257568 0.86845457553863525 0.00011488970631035045
0.94768786430358887 0.86593151092529297 0.0030283909291028976
0.9889906644821167 0.86267328262329102 0.0017761529888957739
1 0.85846883058547974 0.0076074488461017609
0.018146738409996033 0.049189474433660507 0.22572264075279236
0.080578029155731201 0.034502469003200531 0.21499493718147278
0.1779949963092804 0.017118116840720177 0.19540683925151825
0.32353523373603821 0.0082163792103528976 0.15708081424236298
0.50613689422607422 0.0038109573069959879 0.10527978092432022
0.67604458332061768 0 0.076340831816196442
0.81121969223022461 0 0.058641783893108368
0.091110020875930786 0.156800776720047 0.26009064912796021
0.13937044143676758 0.14580424129962921 0.25476676225662231
0.2290802001953125 0.12545101344585419 0.23609437048435211
0.37252223491668701 0.094673782587051392 0.20347782969474792
0.5499534010887146 0.056606262922286987 0.15970391035079956
0.70776385068893433 0.01742064580321312 0.1188063845038414
0.82603561878204346 0.011109864339232445 0.083258591592311859
0.12720075249671936 0.31843459606170654 0.31312647461891174
0.17968685925006866 0.30698779225349426 0.30381354689598083
0.28965866565704346 0.28847908973693848 0.2896578311920166
0.44284272193908691 0.26036381721496582 0.26292482018470764
0.61329150199890137 0.21685606241226196 0.22449794411659241
0.75525438785552979 0.16396000981330872 0.1836831271648407
0.86227208375930786 0.11795860528945923 0.16181512176990509
0.17802116274833679 0.53949630260467529 0.37288960814476013
0.24772180616855621 0.52974867820739746 0.36025336384773254
0.37543186545372009 0.51508957147598267 0.34660348296165466
0.53164559602737427 0.49527055025100708 0.32344114780426025
0.68705779314041138 0.46804815530776978 0.29414284229278564
0.81282645463943481 0.42568162083625793 0.26753970980644226
0.91047227382659912 0.37124812602996826 0.2561441957950592
0.35107260942459106 0.72050809860229492 0.40366283059120178
0.40996375679969788 0.7187536358833313 0.39221596717834473
0.51155662536621094 0.7103809118270874 0.38174086809158325
0.6379590630531311 0.69542193412780762 0.35941240191459656
0.7585180401802063 0.68160027265548706 0.34352830052375793
0.8599967360496521 0.66338610649108887 0.33978232741355896
0.95035654306411743 0.63295012712478638 0.3435857892036438
0.59580534696578979 0.82368963956832886 0.36438897252082825
0.62645679712295532 0.82465004920959473 0.34600532054901123
0.67897176742553711 0.82027643918991089 0.35435193777084351
0.75460958480834961 0.81203180551528931 0.34358200430870056
0.8302876353263855 0.80441594123840332 0.34932059049606323
0.90326285362243652 0.79267710447311401 0.34144067764282227
0.98275858163833618 0.78079050779342651 0.36162829399108887
0.82092893123626709 0.89457452297210693 0.15159280598163605
0.83092707395553589 0.89294350147247314 0.15365909039974213
0.85043191909790039 0.89163553714752197 0.1603451669216156
0.88553154468536377 0.88997644186019897 0.16504433751106262
0.92270267009735107 0.88839012384414673 0.19498567283153534
0.96736747026443481 0.88188266754150391 0.18574129045009613
1 0.87879782915115356 0.20946255326271057
0.015253688208758831 0.064405061304569244 0.37401103973388672
0.074431039392948151 0.048073772341012955 0.36917975544929504
0.17382803559303284 0.033396761864423752 0.3527199923992157
0.32569873332977295 0.018312536180019379 0.31728345155715942
0.51160866022109985 0.0079955011606216431 0.2702825665473938
0.67698585987091064 0.00089922139886766672 0.2362133264541626
0.80558091402053833 1.2925092050863896e-05 0.21699543297290802
0.07933083176612854 0.17423103749752045 0.42418393492698669
0.12670256197452545 0.16348960995674133 0.41887405514717102
0.22374832630157471 0.1483546644449234 0.40162107348442078
0.3754584789276123 0.11570745706558228 0.37205147743225098
0.55212366580963135 0.076600782573223114 0.33152741193771362
0.70490580797195435 0.040320169180631638 0.29392579197883606
0.82175749540328979 0.023499567061662674 0.26646965742111206
0.10630437731742859 0.33586773276329041 0.49317944049835205
0.1604204922914505 0.32637447118759155 0.48557752370834351
0.2835051417350769 0.31017786264419556 0.47222009301185608
0.44174075126647949 0.28357988595962524 0.44685870409011841
0.60874152183532715 0.24161326885223389 0.41017478704452515
0.74693483114242554 0.19036608934402466 0.37405773997306824
0.85230070352554321 0.13956600427627563 0.3509528636932373
0.14215986430644989 0.56304079294204712 0.56595396995544434
0.22527213394641876 0.55260962247848511 0.55632150173187256
0.36395224928855896 0.53920328617095947 0.54322195053100586
0.52411377429962158 0.52179586887359619 0.52346283197402954
0.67520666122436523 0.49370267987251282 0.49652945995330811
0.79769939184188843 0.45027008652687073 0.47080153226852417
0.89363878965377808 0.38844999670982361 0.45159700512886047
0.32548561692237854 0.74273568391799927 0.60876607894897461
0.39189594984054565 0.74208104610443115 0.59936380386352539
0.49704930186271667 0.7329411506652832 0.59081053733825684
0.62292766571044922 0.72094208002090454 0.57567870616912842
0.73940575122833252 0.70712608098983765 0.56460624933242798
0.83966565132141113 0.68744111061096191 0.55304539203643799
0.92864233255386353 0.65191984176635742 0.54069572687149048
0.5725516676902771 0.85059249401092529 0.60625946521759033
0.60543394088745117 0.85061454772949219 0.59920644760131836
0.65784865617752075 0.84562915563583374 0.59411764144897461
0.73052418231964111 0.83932077884674072 0.5897095799446106
0.80377471446990967 0.83166193962097168 0.59427875280380249
0.87998670339584351 0.82160460948944092 0.5942072868347168
0.96148884296417236 0.80755317211151123 0.59220224618911743
0.7856135368347168 0.92678487300872803 0.50093084573745728
0.79698258638381958 0.92456686496734619 0.49242648482322693
0.81546986103057861 0.92252987623214722 0.48651176691055298
0.8479188084602356 0.92109185457229614 0.49237164855003357
0.88873326778411865 0.91844660043716431 0.50566780567169189
0.94154816865921021 0.91378676891326904 0.52115923166275024
0.99779492616653442 0.90883225202560425 0.52653944492340088
0.016287380829453468 0.07456023246049881 0.54722458124160767
0.073798477649688721 0.061715114861726761 0.5411871075630188
0.17390093207359314 0.045774661004543304 0.52474182844161987
0.3256354033946991 0.023524580523371696 0.49089223146438599
0.50892311334609985 0.010963289998471737 0.44179239869117737
0.66661560535430908 0.0031653610058128834 0.40873187780380249
0.78902405500411987 1.7233456674148329e-05 0.39318770170211792
0.076919332146644592 0.19246430695056915 0.60492253303527832
0.12413150817155838 0.1828874945640564 0.59776812791824341
0.22611449658870697 0.16166374087333679 0.57852882146835327
0.38029426336288452 0.12886112928390503 0.54404288530349731
0.55177634954452515 0.094199404120445251 0.50066673755645752
0.69710582494735718 0.057324070483446121 0.46542999148368835
0.81014227867126465 0.028396591544151306 0.44095858931541443
0.10305575281381607 0.35792601108551025 0.67396968603134155
0.16218955814838409 0.34964463114738464 0.66732943058013916
0.28464287519454956 0.32955098152160645 0.64895570278167725
0.44558894634246826 0.30248731374740601 0.61521434783935547
0.60712724924087524 0.26561123132705688 0.57576435804367065
0.73930251598358154 0.21211147308349609 0.54093390703201294
0.84093117713928223 0.1524062305688858 0.51119148731231689
0.14130762219429016 0.58399379253387451 0.73954039812088013
0.22709396481513977 0.57709604501724243 0.73301661014556885
0.36197149753570557 0.56495410203933716 0.71597135066986084
0.52224195003509521 0.54020941257476807 0.68815410137176514
0.66923767328262329 0.5134081244468689 0.65804946422576904
0.78895473480224609 0.4726775586605072 0.63147109746932983
0.88167488574981689 0.40598693490028381 0.60266917943954468
0.32546699047088623 0.76367521286010742 0.77669608592987061
0.39073768258094788 0.76174485683441162 0.77065914869308472
0.49348390102386475 0.75095146894454956 0.7612730860710144
0.61474841833114624 0.74035948514938354 0.74372166395187378
0.72735601663589478 0.72530895471572876 0.72574311494827271
0.82591527700424194 0.70431548357009888 0.70592635869979858
0.91441237926483154 0.66323208808898926 0.68366765975952148
0.56870681047439575 0.87330496311187744 0.78708529472351074
0.59502995014190674 0.87158036231994629 0.78290462493896484
0.64513063430786133 0.86559015512466431 0.77919089794158936
0.71390622854232788 0.86138677597045898 0.77365213632583618
0.78600645065307617 0.85362875461578369 0.76474088430404663
0.86106979846954346 0.84292382001876831 0.75287312269210815
0.94432646036148071 0.82643294334411621 0.74026674032211304
0.76344221830368042 0.9534299373626709 0.74150162935256958
0.77350646257400513 0.95181304216384888 0.73883605003356934
0.78954768180847168 0.94944238662719727 0.74181509017944336
0.82217305898666382 0.94750380516052246 0.73531061410903931
0.86395096778869629 0.94490700960159302 0.73099935054779053
0.91758137941360474 0.94154214859008789 0.73536717891693115
0.98576998710632324 0.93428868055343628 0.73694604635238647
0.020978247746825218 0.095171846449375153 0.69745016098022461
0.08559088408946991 0.082760676741600037 0.68431663513183594
0.19554123282432556 0.057289198040962219 0.65923702716827393
0.34857690334320068 0.028651129454374313 0.62077468633651733
0.517833411693573 0.011772066354751587 0.57420200109481812
0.66518902778625488 0.0031025756616145372 0.53832864761352539
0.78643029928207397 4.3083641685370822e-06 0.51385504007339478
0.081454649567604065 0.20930157601833344 0.74595350027084351
0.1384730339050293 0.19930598139762878 0.73412662744522095
0.2485157698392868 0.17105852067470551 0.70888322591781616
0.40194800496101379 0.1350211501121521 0.66970419883728027
0.56274783611297607 0.10043027997016907 0.62495088577270508
0.69790071249008179 0.062578044831752777 0.58708977699279785
0.80747312307357788 0.029157795011997223 0.55778259038925171
0.12493562698364258 0.37097245454788208 0.79753369092941284
0.18978367745876312 0.36238136887550354 0.78843289613723755
0.31150764226913452 0.34059673547744751 0.76621532440185547
0.46675828099250793 0.31001377105712891 0.72955977916717529
0.61791396141052246 0.27394989132881165 0.68907922506332397
0.7400403618812561 0.21884863078594208 0.65163010358810425
0.8362693190574646 0.15148866176605225 0.61621379852294922
0.18979889154434204 0.59867560863494873 0.85332608222961426
0.26879939436912537 0.59217411279678345 0.84597682952880859
0.39461317658424377 0.57538402080535889 0.82593369483947754
0.54112797975540161 0.55136257410049438 0.79557138681411743
0.67759835720062256 0.52631688117980957 0.76496291160583496
0.78982710838317871 0.48606455326080322 0.73540914058685303
0.87689423561096191 0.41455170512199402 0.70141911506652832
0.36835294961929321 0.77903121709823608 0.88727384805679321
0.42415705323219299 0.77640706300735474 0.88172221183776855
0.51654821634292603 0.76427251100540161 0.86814439296722412
0.62548470497131348 0.75318092107772827 0.84892904758453369
0.73068273067474365 0.73805862665176392 0.82991939783096313
0.82501620054244995 0.71836608648300171 0.80687540769577026
0.90952825546264648 0.67719727754592896 0.78291505575180054
0.57926207780838013 0.88916552066802979 0.90483611822128296
0.60544925928115845 0.8861086368560791 0.89728957414627075
0.65223163366317749 0.87883096933364868 0.88898223638534546
0.71420192718505859 0.87476319074630737 0.88207435607910156
0.78267776966094971 0.86635583639144897 0.87169855833053589
0.85628241300582886 0.85438549518585205 0.8535764217376709
0.93592101335525513 0.83661478757858276 0.83955460786819458
0.75404322147369385 0.97367554903030396 0.89044022560119629
0.76622611284255981 0.97143220901489258 0.88627499341964722
0.78417420387268066 0.9679025411605835 0.88253772258758545
0.81368011236190796 0.96547794342041016 0.87987673282623291
0.85314249992370605 0.96325618028640747 0.87434709072113037
0.90432429313659668 0.96157896518707275 0.86911976337432861
0.97276121377944946 0.95699167251586914 0.86298298835754395
0.035766810178756714 0.094414517283439636 0.79668760299682617
0.11634693294763565 0.079841330647468567 0.78138899803161621
0.23493623733520508 0.057438090443611145 0.7537308931350708
0.38489159941673279 0.033160969614982605 0.71473932266235352
0.54090315103530884 0.016668505966663361 0.67179137468338013
0.67589813470840454 0.0085081364959478378 0.63628667593002319
0.79378372430801392 0.005636806134134531 0.60929727554321289
0.10026835650205612 0.20935285091400146 0.83411651849746704
0.1728975921869278 0.19434593617916107 0.82011651992797852
0.28914117813110352 0.17097187042236328 0.79387974739074707
0.4369780421257019 0.13906514644622803 0.75616425275802612
0.5842357873916626 0.10741560906171799 0.71437233686447144
0.70919787883758545 0.074454694986343384 0.67654001712799072
0.81577235460281372 0.046155203133821487 0.64697098731994629
0.16981178522109985 0.36597618460655212 0.87057989835739136
0.23887746036052704 0.35644099116325378 0.86137336492538452
0.35631200671195984 0.3403400182723999 0.84028071165084839
0.50082999467849731 0.30947056412696838 0.80592268705368042
0.6373559832572937 0.2737179696559906 0.76839578151702881
0.74815183877944946 0.22224943339824677 0.73135054111480713
0.84196221828460693 0.15800604224205017 0.69521594047546387
0.27288734912872314 0.59695607423782349 0.92414587736129761
0.33291357755661011 0.59186989068984985 0.91715157032012939
0.44425955414772034 0.57684886455535889 0.89791500568389893
0.5727536678314209 0.55187869071960449 0.87051576375961304
0.6934809684753418 0.52868962287902832 0.84212255477905273
0.79232794046401978 0.47659492492675781 0.80945706367492676
0.87729722261428833 0.40845149755477905 0.77681827545166016
0.43882602453231812 0.780894935131073 0.96005374193191528
0.47820395231246948 0.77826428413391113 0.95566248893737793
0.55496692657470703 0.76767593622207642 0.94290578365325928
0.64873141050338745 0.75586825609207153 0.92626512050628662
0.74331766366958618 0.74657094478607178 0.91025090217590332
0.8287169337272644 0.71980321407318115 0.88765305280685425
0.90976899862289429 0.68482679128646851 0.86595600843429565
0.61296498775482178 0.89627504348754883 0.98330008983612061
0.63289791345596313 0.89285033941268921 0.97583270072937012
0.67262274026870728 0.88656032085418701 0.96708238124847412
0.72703343629837036 0.88271307945251465 0.96078753471374512
0.79118412733078003 0.87628990411758423 0.9574088454246521
0.86006271839141846 0.86607760190963745 0.94379431009292603
0.93550676107406616 0.85117077827453613 0.9328044056892395
0.76305335760116577 0.9880562424659729 0.98848676681518555
0.77441906929016113 0.98510837554931641 0.98279887437820435
0.79197108745574951 0.98184144496917725 0.97737205028533936
0.81875604391098022 0.97918069362640381 0.97937333583831787
0.85766708850860596 0.97785466909408569 0.98097968101501465
0.90830063819885254 0.97782731056213379 0.97653722763061523
0.97413581609725952 0.97323286533355713 0.97235822677612305
