examples/fuji_fp-100c_alt.cube
# Created by: G'MIC (https://gmic.eu)
TITLE "fuji_fp-100c_alt"
# LUT size
LUT_3D_SIZE 5
# Data domain
DOMAIN_MIN 0.0 0.0 0.0
DOMAIN_MAX 1.0 1.0 1.0
# LUT data points
0.028647718951106071 0.021363666281104088 0.025473112240433693
0.13161610066890717 0.0069322176277637482 0.0091443527489900589
0.30340886116027832 0.0024036781396716833 0.0064536896534264088
0.59175390005111694 0.0011942096753045917 0
0.82334518432617188 0 0
0.12057247012853622 0.19806355237960815 0.078204259276390076
0.20338425040245056 0.18580207228660583 0.061073392629623413
0.40060234069824219 0.14373314380645752 0.027067985385656357
0.65828162431716919 0.084361463785171509 0
0.85828566551208496 0.027104621753096581 0
0.19689169526100159 0.50616157054901123 0.14018714427947998
0.31614243984222412 0.48908942937850952 0.12651027739048004
0.53587430715560913 0.46869218349456787 0.088495619595050812
0.76520395278930664 0.41451254487037659 0.036240238696336746
0.9291762113571167 0.33511874079704285 0.024635555222630501
0.49003082513809204 0.75232702493667603 0.086623005568981171
0.57059341669082642 0.74143785238265991 0.070423886179924011
0.7142607569694519 0.72829514741897583 0.06518930196762085
0.86322551965713501 0.71377772092819214 0.074043720960617065
0.9912375807762146 0.6800992488861084 0.06287047266960144
0.84214115142822266 0.87053757905960083 0.001082252012565732
0.86873215436935425 0.86775428056716919 0
0.91787773370742798 0.86117875576019287 0
0.98279726505279541 0.85455584526062012 0.00012368595344014466
1 0.84670692682266235 0
0.02126292884349823 0.041059710085391998 0.16456474363803864
0.12731395661830902 0.018866864964365959 0.14371871948242188
0.31924653053283691 0.0050814161077141762 0.098300546407699585
0.59182482957839966 7.7550554124172777e-05 0.035611920058727264
0.81150656938552856 0 0.013099011965095997
0.12075035274028778 0.21762186288833618 0.21578490734100342
0.20423077046871185 0.20153477787971497 0.20200520753860474
0.40376639366149902 0.15809841454029083 0.15852569043636322
0.65893900394439697 0.090329758822917938 0.094897955656051636
0.84542548656463623 0.038754571229219437 0.051474612206220627
0.19184006750583649 0.52886563539505005 0.28832593560218811
0.31271201372146606 0.51074093580245972 0.27081975340843201
0.53449171781539917 0.48373684287071228 0.23366618156433105
0.759490966796875 0.43730050325393677 0.18691402673721313
0.91712450981140137 0.35425859689712524 0.16548949480056763
0.48261255025863647 0.76937246322631836 0.28293150663375854
0.56102156639099121 0.76491808891296387 0.26490327715873718
0.70430845022201538 0.74989473819732666 0.24562844634056091
0.84756553173065186 0.73455768823623657 0.24120497703552246
0.97463870048522949 0.70393276214599609 0.25637432932853699
0.83433723449707031 0.8834385871887207 0.039396576583385468
0.85525834560394287 0.87985122203826904 0.015615904703736305
0.9022403359413147 0.87682205438613892 0.028546800836920738
0.95626688003540039 0.87369853258132935 0.061632551252841949
1 0.86678153276443481 0.069546446204185486
0.015253688208758831 0.064405061304569244 0.37401103973388672
0.11819284409284592 0.041099771857261658 0.36301910877227783
0.32569873332977295 0.018312536180019379 0.31728345155715942
0.59977859258651733 0.003728335490450263 0.25097772479057312
0.80558091402053833 1.2925092050863896e-05 0.21699543297290802
0.10040609538555145 0.24391250312328339 0.45679274201393127
0.19255824387073517 0.22983813285827637 0.44432097673416138
0.40651091933250427 0.18892167508602142 0.40760785341262817
0.65595823526382446 0.12163600325584412 0.34955403208732605
0.83498704433441162 0.065781205892562866 0.3041384220123291
0.14215986430644989 0.56304079294204712 0.56595396995544434
0.28975525498390198 0.54720216989517212 0.54938822984695435
0.52411377429962158 0.52179586887359619 0.52346283197402954
0.74061840772628784 0.47572517395019531 0.48340639472007751
0.89363878965377808 0.38844999670982361 0.45159700512886047
0.44985893368721008 0.80327928066253662 0.61516398191452026
0.53439319133758545 0.80075973272323608 0.60369175672531128
0.67634385824203491 0.78745824098587036 0.58924394845962524
0.81482017040252686 0.77104794979095459 0.58255636692047119
0.94422250986099243 0.74156469106674194 0.5749441385269165
0.7856135368347168 0.92678487300872803 0.50093084573745728
0.80480444431304932 0.92338722944259644 0.48430320620536804
0.8479188084602356 0.92109185457229614 0.49237164855003357
0.91317582130432129 0.91611367464065552 0.51236873865127563
0.99779492616653442 0.90883225202560425 0.52653944492340088
0.018225874751806259 0.084909237921237946 0.62900185585021973
0.12314946949481964 0.065838441252708435 0.60990303754806519
0.33399561047554016 0.026012346148490906 0.56233745813369751
0.59216386079788208 0.0063605215400457382 0.49413338303565979
0.78566354513168335 0 0.45918095111846924
0.10144835710525513 0.27310103178024292 0.71323668956756592
0.20054320991039276 0.25648331642150879 0.69451534748077393
0.42021393775939941 0.20971198379993439 0.64467185735702515
0.65305691957473755 0.14948378503322601 0.58198791742324829
0.82017612457275391 0.072252653539180756 0.53384143114089966
0.15536682307720184 0.59417939186096191 0.80520671606063843
0.3038770854473114 0.58165758848190308 0.78884780406951904
0.52920901775360107 0.54709398746490479 0.74797749519348145
0.73386526107788086 0.50527858734130859 0.70345437526702881
0.87904685735702515 0.41309574246406555 0.65734457969665527
0.45805951952934265 0.83356273174285889 0.8482852578163147
0.53465759754180908 0.82619363069534302 0.83562827110290527
0.66435849666595459 0.8157544732093811 0.82234770059585571
0.79659026861190796 0.79728043079376221 0.79665887355804443
0.92490500211715698 0.76148486137390137 0.76783865690231323
0.7561841607093811 0.96444100141525269 0.8249051570892334
0.77478820085525513 0.96073198318481445 0.82098263502120972
0.81643640995025635 0.95738255977630615 0.81730467081069946
0.88128989934921265 0.9534267783164978 0.80836254358291626
0.97875064611434937 0.94517487287521362 0.80460792779922485
0.035766810178756714 0.094414517283439636 0.79668760299682617
0.17092379927635193 0.069786876440048218 0.76911312341690063
0.38489159941673279 0.033160969614982605 0.71473932266235352
0.61123234033584595 0.011544665321707726 0.65288972854614258
0.79378372430801392 0.005636806134134531 0.60929727554321289
0.1336740255355835 0.27874928712844849 0.85111063718795776
0.25725394487380981 0.25648307800292969 0.82879960536956787
0.46712461113929749 0.21361914277076721 0.77929449081420898
0.67168867588043213 0.15866419672966003 0.71997886896133423
0.82793217897415161 0.088633671402931213 0.66866308450698853
0.27288734912872314 0.59695607423782349 0.92414587736129761
0.38368788361549377 0.5846564769744873 0.90871822834014893
0.5727536678314209 0.55187869071960449 0.87051576375961304
0.74559587240219116 0.50776731967926025 0.82679033279418945
0.87729722261428833 0.40845149755477905 0.77681827545166016
0.5303463339805603 0.84319049119949341 0.97140336036682129
0.58220779895782471 0.83657503128051758 0.9621654748916626
0.68735271692276001 0.82586616277694702 0.94588446617126465
0.80514425039291382 0.81135827302932739 0.92789196968078613
0.9227098822593689 0.78008508682250977 0.90238088369369507
0.76305335760116577 0.9880562424659729 0.98848676681518555
0.78203856945037842 0.9832417368888855 0.97890782356262207
0.81875604391098022 0.97918069362640381 0.97937333583831787
0.88175708055496216 0.97802066802978516 0.97858685255050659
0.97413581609725952 0.97323286533355713 0.97235822677612305
